jacketdembys/Comparative_Study_IK_Solutions/cec_data_points_RRRRRR.csv
x,y,z,ro,pi,ya,Q1,Q2,Q3,Q4,Q5,Q6
0.565810849755443,-0.118221604760718,-0.196266203067045,0.460488828726647,1.04312411663978,-1.07900832245164,-0.260683060436002,4.14139349026191,0.332255339799302,-2.48396215069522,-4.43899639333131,-5.12282430330575
-0.0345366179293133,-0.0115852885248529,0.360409469096181,-0.012670187418178,0.812070553678095,-0.642151815775627,-0.985642615074724,2.44076946364368,2.56142996830624,0.487785465525181,-1.01543167968146,2.32753688699213
0.637813501163659,0.517641975097439,0.178367829158976,-1.47981732989214,0.666543535138835,-1.56979861189057,-0.928490641028456,4.85743515188757,0.485529741390121,2.14215791060885,-1.03917850148236,0.737518135542475
-0.39693003182534,-0.267568857432842,-0.0451358910650184,-0.337241942501226,-1.31221128492289,0.211264184016752,-1.12975775184415,1.7716206677822,4.83176515733261,5.88434850495376,-2.3445809249296,2.41679726602356
0.467057907612071,-0.496370251330014,0.24608143804576,-1.31993867345434,-0.187191767174947,1.19541898470029,1.18246139574412,4.93226089098718,0.809557640287931,-5.79240842681173,-4.1490333133391,4.75187884313559
-0.258437587417014,-0.00234785397288115,-0.330546687213738,-1.33902971222708,-1.05007354722358,0.795220359527854,-1.26183063612117,2.78359041201102,5.71491358510442,0.41676726250177,2.41119892631527,-2.31829895333401
0.6678315902577,-0.544877430724034,0.0447124051896316,0.94850589646707,-0.0835999418678691,-1.20388391053735,0.585909944292144,4.66007578502972,0.434391948522961,3.14340616867345,6.1432096221382,3.11854158669203
0.272821726989761,0.468304652700334,-0.222489151714928,1.52657864253899,-0.480222727711008,-0.666805978622444,-0.689755541581967,4.45430060584331,0.91173860556471,-0.654789261480981,5.13456252322838,-2.59352110109649
-0.303260068095151,-0.361279835944429,0.631603962442126,1.19974121367452,0.838683024336155,0.625760896410069,-0.666723437207708,1.46271556933118,0.440454090138934,2.24731358593911,-3.62378796910425,-2.9462275701032
-0.231663056464035,0.103090503147896,0.0382797860766804,0.427780031274771,-0.383071551937916,0.668771112780553,-0.0264737008978606,1.1148161744768,3.55813064593841,-4.43933965519641,1.122246474641,2.51023758533961
0.148829405326436,0.264105215425722,0.0657292908377771,-0.610279913603954,0.384932677899835,1.13944640010193,-1.24930323698009,2.75159109750991,4.23411380122583,-1.07845510551997,-5.65545162859388,0.451087540457793
0.0756798602602089,-0.151408376146325,-0.559915312814076,-0.284219398738091,0.328239947908324,0.570463111054354,0.514576054119835,3.20915730089992,5.64019748357303,1.08768271748891,5.06929797404987,-4.55562722477859
0.162340962299298,-0.0862174557743224,0.058966945243591,0.0678373674876694,-0.610715659461449,0.99360344043606,-1.13324677745309,4.53649007437151,2.56654055078813,-4.20528318356841,5.37223126207513,-1.9130306265963
0.439201364120583,-0.452384127692765,-0.0808931899071458,0.469767880157178,0.0211083381337049,-0.078697184233574,0.787949460643952,4.16713897987201,5.29575762729592,1.55411078855655,3.1534356288569,-1.89879943515059
0.163930836812508,0.287170023798751,0.0228467547718861,1.56276894145822,-0.705815610246018,0.324078947277162,-0.72279284502691,4.93806732599521,2.73746800325397,5.8413523088628,2.05386643535259,1.52927352232918
0.0468386567055254,-0.0848777236439291,0.326523524426117,0.186790201370916,-0.00352171233874311,1.47058546891177,-1.21031122113556,5.18131020795441,2.86010083767381,0.9850729467054,-1.15438698232172,-3.30461642784331
-0.154452225322494,0.0502223300535376,-0.365482952459913,1.09655720833768,0.406541646273648,-1.36444009797221,1.26725413840695,3.47593955832857,0.347743681530398,1.47208640014511,-2.17844441222048,0.340022141090347
-0.053838342549389,0.21915673277132,-0.549264207723973,1.13712200043734,0.0111785889558338,-0.257497883799362,1.21247286390575,2.49390336975909,5.43754393855554,1.55018893407005,-6.08436970598998,5.39646743482929
0.434498699143918,-0.485602796934165,0.211703744869529,0.837372880978756,0.891897932794916,0.730116321534866,0.599720353664105,5.39837216189304,1.30015935414906,-4.55988665286514,5.43615491461531,2.47328996091888
-0.0173744928295265,0.203952197644959,0.377371147782454,-0.430458914105405,-0.498872357183486,-1.38614895430905,-1.36345066903561,4.30084721371801,4.56836672629188,5.31588309264427,2.65809851103824,-4.72155034243443
0.155925860463503,-0.64915905218508,0.697635416384647,0.451380176054352,-0.323635524192648,-1.24873019693627,-1.50834104437141,0.991606311512604,0.490693893714745,-3.18920578232267,4.52424463467666,0.487965545867237
0.493001774095615,-0.262651409255352,-0.142793060776333,-1.23332451546593,-0.352128919838817,-0.465158015017239,0.165945140187279,4.69367960954425,1.02946164568969,-2.77485972724532,1.07768278876228,5.90111421231236
-0.481340122449648,-0.168543187228685,0.298198870209127,0.598042583852786,1.45486414490602,-1.30850514494441,0.191732088460713,0.957283340990966,4.83113630629558,-3.35554423848212,3.85919770574085,-1.40918470714516
0.136527404933933,-0.0701643301415125,0.49455765009178,-0.367535098813498,0.12373259005913,0.791819632733777,1.14210041955631,4.26299509645205,3.45766052977219,-4.5684383692614,-5.53023741441303,-4.75833847071439
0.0225364041052403,-0.151100853657678,0.767099218992443,-0.104013832035789,-0.206642473579394,-0.860662262200103,-1.43083247245505,1.36045751065811,1.6000900556872,2.67649846426319,0.75042572846339,-6.1254022070736
0.245964520719246,0.0855078603614628,0.589990919637102,-1.32973495248045,-0.076352811547983,1.00433476670943,-1.34468245847499,5.26202537712627,3.5243145385973,-3.72852717703769,-3.11236648536478,3.06400604767028
0.349697470037025,0.292924560877138,-0.0587472831955142,0.913359095265981,0.15042340529575,0.407970033467234,-0.956836504646995,3.51078775436012,5.78308628143859,4.35837925925779,-3.26916947470746,-0.0782920795324928
0.634902618786414,-0.11728129730247,-0.150097578143544,-1.46648762894067,-0.174467466051944,-1.00243582310174,0.376852003623029,4.63446062065386,1.21277395414741,-6.04974986601099,-5.40326109799192,-0.171592396663218
-0.28040904329433,0.184699679142695,-0.175294323954259,0.282407445236141,0.806907405984125,0.57542078345417,0.33404385559026,3.45403056428089,2.11517666452316,6.14013168450978,1.00210797976601,-1.50619044621496
0.376290798825374,-0.197609145052163,0.551874094910496,-0.7052398180325,0.569861293446889,-0.0242667319694697,0.160058550894268,4.25488498642429,4.09267477787581,-2.95410796259663,-5.44959719310964,-1.63257011767308
-0.407402137293213,0.328636507736469,-0.0842092212790597,0.73536707638337,0.514962232294876,1.37272000966664,0.407519567100929,1.82640402953179,4.56206880376269,-5.44706322310838,-3.0119693019282,3.82965879441623
-0.137498390851008,0.0815496103340265,0.0279180751491394,1.37447692954309,0.0461515273243775,-0.763648759653302,-0.963104605553038,3.7744460563523,3.28023880877525,5.33829439597196,-2.97450050767468,-5.45429379551679
0.587106586598739,-0.51199228150575,0.450052099002401,1.4693758193259,-0.779271626548203,-0.625584121146327,0.738481503376692,4.37669737304101,5.43350151009032,5.42832111657906,-6.10786467051496,-3.33810447502345
0.678451157728683,-0.281918869918148,0.7365983744034,-1.25540018811178,1.33096303718978,-0.536209760629442,0.366870028454694,5.1791640832991,5.67156452288711,0.711924959345374,5.22266342084399,1.77897344808949
0.357254573394257,0.125414160218195,0.104882730022676,-1.2370518756714,1.01826320567758,1.27013354293603,-0.345550957205409,3.0780203174464,3.72781341514802,0.622637544847776,5.35555375694965,5.26195954079581
0.383824640634468,0.302298801423624,0.130360327358075,-1.40451788055014,1.04276591753379,-0.386877189817642,-0.33025800215249,5.24381132341491,1.30923647969536,-4.69568174636721,-4.58573054488876,0.0711528723757882
-0.211788063179393,0.237197677163048,0.686944990276659,1.4547001949638,1.06035056821268,0.903030829885509,-1.50317415667553,5.17441698910657,4.97996857956748,-6.09445122892415,-4.06903785876109,-2.11035136415709
0.107868565108227,0.178304410617314,-0.210464287691477,1.16572322779341,0.0437081332182834,-0.361766271015846,-1.15925760149348,4.54601686487988,2.26901882248302,5.53055373315362,1.03062058084775,4.76054311669237
0.162533494187809,-0.0287770259583635,0.467781036715277,0.880153388952287,0.39806021303562,-0.0718149006157211,1.08301520108356,4.98120464176743,2.91612134458983,0.582411266907529,3.75236339319511,-2.69273632477915
0.0497315795763717,-0.0885658307304792,-0.543799609620762,-0.187777989895625,0.291953103406063,-0.644539728767342,-0.0306194617356141,3.59134096327192,0.418908948117004,1.17472202095114,-0.833447579095885,3.86240631819236
0.315021731027875,-0.0699765622511093,0.527807319183856,1.38900752321442,-0.875669936317804,1.19828318447638,-0.580425569308112,4.92446505858457,3.57914710410383,-3.9708449167059,3.61822546295977,1.40782529110953
0.0275558966572004,0.327519928196948,0.0540899716447242,0.483651423083238,1.24325446454848,0.887384253340308,-1.40143535368762,2.77944306114088,4.14795238661171,5.26030508189528,-6.27813331339859,5.99113216051079
-0.0123482958315097,-0.208798125821422,0.489560138430123,-0.418731391827864,0.0577816046999447,-1.32682218736422,-0.387734376503039,5.2915541519762,3.73009297246487,4.13239829806378,0.938852457318453,1.60945297480833
0.179467839555035,0.0782773801050763,0.207548734492947,-1.51840892621024,0.925101639834544,0.695068087237713,-0.673631978180215,3.53562985427796,4.5467050125878,4.50270446482022,3.20545731740668,2.48886078684902
0.216179142861706,0.0489392329055763,-0.129952351552761,-1.41179968085807,0.00885165321014853,1.01552236222222,1.14504589984413,2.33694454138601,4.10141885895709,-0.617336321854429,-1.48154051238496,-1.12077763147221
0.148753639613746,0.13603441913616,0.0503467754317728,-0.770742995634324,-1.1724099133734,-1.29296282018529,-0.309511016800698,2.31290728698252,3.82677464786519,-0.876538646223017,5.95397250908734,2.23431189732699
-0.26912020620165,-0.442804165223432,0.0681126600549014,0.82706997649184,1.33101643993859,-0.0359561267963715,-0.94697062408814,2.8089723850208,2.26120475728552,3.74023951975794,4.77519932691029,5.07482768654186
-0.547552442675414,0.206622502789523,0.504969960463999,-1.05684047139487,-0.096067287338692,0.407008546695776,0.511199367151633,2.09883082400999,1.74990337397513,4.45977907820916,0.348272516961591,3.79706816683829
0.0220794573623656,-0.154844386899682,0.414075821191038,1.2583855176655,-0.354556128804659,0.226687333979238,0.227729393078768,4.19955987368691,3.24843724311193,3.40402761283362,0.865295030955554,-0.43090237402454
0.10213103919715,0.0546033498617451,0.494383595916014,-1.22985430240426,0.00390826734752143,-1.38560720705303,-0.494207371102158,1.18218883073015,2.45553140107858,-5.28257450425559,6.06725879009197,-4.0009709090267
0.356382586112129,-0.100517802772897,0.58196644151197,-0.911263873695073,-0.898641486712153,1.44807589714243,0.979732993716928,4.84311462461514,4.20046763153509,0.873292546185636,-4.26035857382875,-0.416197908695432
0.0462365012013036,0.0400396595200667,0.251263786915505,-0.0840325680108189,0.654633668552878,-0.800885234748017,-0.486406346661153,1.89386356122244,3.6615056732876,-2.35908679493151,5.23144987369921,5.14763182334884
-0.483095618680809,-0.134722702962943,0.55362761315196,1.45133988435175,-0.638329844556588,-0.956028644383633,-0.763035383945207,1.37587338654583,1.41605543025432,-0.00522546536143498,2.87249222089963,-3.66693683428634
0.0496055007205947,0.123723017142663,0.406086267770334,-0.421023849963683,-0.242650647301763,0.118598064115714,-0.791575921953253,4.73742900070814,2.66866580019618,1.46630779903409,-3.34685000147272,-5.00182693470451
-0.515266164182948,0.111667669327662,-0.18161471783678,1.21004245043131,-0.707419911378713,-1.30615561678087,0.0498162880161819,3.03786174325809,1.18962112004141,1.53066225118858,0.553047463797927,1.93694702754845
-0.112255265511507,0.240038531623253,-0.0262345544097599,-0.432768179193206,-0.854531308215376,-0.314964458563077,-1.1166931198301,4.28298968162449,1.57951988409393,0.243182197047557,3.58513562543754,-6.00257287305729
0.575891506127716,0.425712964690189,0.586158757425791,-1.15414617804243,1.13803374517227,-1.39596058897061,-0.551781606218794,4.83386071745111,5.07884692591403,0.483058733178627,4.606935443467,5.65242879190891
0.192404845967948,-0.306549896836547,-0.0400063405686843,0.135312776121976,0.547684127502348,1.19226922982789,1.02543782583264,4.74851756463805,0.886546545274841,1.90134631575506,2.55746989944438,1.38532690854568
-0.486714563828062,0.231381472331602,0.333592193110703,-0.311484341108421,-0.679409498844935,0.904962965724834,0.941269105173289,1.0295438454268,4.66032358396897,2.91198747883976,-3.01971904903887,-3.05275722460705
0.0418417952748265,0.22546115127076,-0.11599979981294,-0.0562483313969781,0.363348484032361,-1.02221584810947,0.415643130084048,2.43957480291835,4.80840921721715,-0.676746407624271,3.55313393717107,6.16345020890296
-0.666264789349932,-0.445125270404793,-0.00877247379997219,1.44387128835548,0.8683945446036,-0.550079872713064,-0.627538349062662,1.52160448968496,5.39693009035442,0.522250557601306,5.96576344576328,1.71662151797601
-0.198379634950859,-0.229200941492131,0.190538275445568,-1.08998599618497,-0.292656803606076,1.47102875840097,1.5516735296286,3.35065533113714,3.29010535015996,-4.58134808564919,-1.81326229915214,-5.95371307355584
0.216643481841678,0.69109265482858,-0.0555153494948508,0.671011170106586,0.730651797012643,1.25494394508009,-1.06690000914475,4.25625887589621,0.50245760511028,-1.6770689010796,4.55337730388716,2.42125960732622
0.0615103132176544,-0.0302499242351591,0.374289096102733,0.726466418898805,0.30617564027082,-1.12750907950234,0.599862430775774,1.728671275443,2.81509702410392,1.02513193444691,6.15440146751741,-3.72082411032518
0.0157362729413011,0.0343364044853544,-0.19082367083925,-0.971334581939228,-0.0623571489911732,-1.24867698478155,-0.792520462565801,2.06236834170266,4.54755165731642,-0.540663981004536,-5.56778888523843,0.107018235749327
0.0208447667678061,0.29464383889924,-0.198794334009043,1.21169865412943,-0.398924528840482,0.45145486183241,-0.904903830696641,4.49661573377893,2.00260308561022,-5.93627792977486,1.17410678737981,4.32082626214955
0.000463441274959134,0.024073292322176,0.432486802755439,1.20657868052178,-0.592733611670901,0.346682232262384,-0.373798870541787,4.27541370185678,3.20420731809324,0.514615558481816,5.77342195141846,3.81968521484301
-0.137691878432973,0.0830055692561313,-0.0609071052229331,1.1082400451899,0.0832512085584734,0.502688466497886,-1.46925041814878,4.09176185946832,2.94490237321796,5.62406586563494,-3.5005795015197,-2.92705932710042
0.0347993415596112,-0.431985692067066,0.0278236896665572,-1.55202218846926,0.0751212873689527,0.674187531219753,-1.31483831727766,2.81767517301554,0.944293671784087,1.68121401714391,3.80714832336446,2.47306797133592
0.119312408436039,0.217230431472263,-0.221045460884902,-1.51751858515547,-1.21912596989702,-0.860030833223205,0.836327719089633,2.42667212735222,5.08526422034951,-0.895117972671811,4.07162811431169,1.58959761056564
-0.262842646605192,-0.58333777877589,0.83366643566679,0.74122232439108,-0.309120104757978,0.426566589776087,-1.120219530737,1.22837309415114,0.434641281253573,-5.44469425760119,-0.520451146373188,-4.85888869953797
0.0963981905206408,-0.0785631041677803,-0.0658921656994622,-0.768131125658968,-0.725391719281516,-0.570580081127985,-1.48351236215979,4.29811737015101,2.55065653963146,3.10312065475646,-0.598098586558724,-0.62722843575671
0.341116940548232,0.211963603995515,-0.16572786007291,0.645981700226187,-1.41134670597384,0.454736563488166,-0.0688872518069017,3.023626214329,4.8453585677698,-1.22657177020139,5.08543627337995,-5.81746244323263
0.0500137177093896,0.0712355530864552,0.0361545621087106,0.9575734937139,0.325145460593893,-1.16379677575652,0.8604016230972,1.44280712817489,3.80763418177911,-6.15294415809699,0.485404748679954,-6.24526054579968
-0.0525434633218076,-0.111388420709193,0.641666480279124,0.567518800574995,0.662773139306001,-1.44726994948024,1.4174670818414,4.98124872701236,4.80491508528218,5.21849101067517,-4.45404662847261,-4.3010907921577
0.0640909755832855,0.486829473964038,0.00572363344078515,-1.39180375550589,-0.474871764278661,0.88514073589434,-0.981334041623847,3.69746142557687,5.42222586645737,6.15695835568457,2.65304306186601,2.91288984984217
-0.0514233363090116,0.335131326550334,0.296785956174038,-0.772245677232557,0.473365657612795,-0.309314174172864,1.28583252456045,2.69177191980217,1.73576343454327,-4.10379750535699,-4.78204374018779,3.92838050719328
-0.0309339241447791,-0.148624182125835,-0.372323616398123,0.370671265872914,-0.238084490621735,-0.375522469978337,-1.10963448486428,2.07200855835965,4.9348611350237,-2.38023079303825,6.06223645864894,-2.93250455581041
-0.181087457887816,0.128517475699527,-0.444275145522947,-0.478080257968946,0.050061725604117,0.712956018384249,0.105725101330281,2.29967065686288,5.45011961250436,-1.67689866938931,-0.834503427122486,0.15447452701816
-0.119517380473078,0.343295186807798,-0.00230874535914322,-0.71877951824451,0.268316889407631,-0.151957346016723,1.37880253306459,1.01310676150667,4.36044210956863,4.9136890968767,-5.94028394342222,0.27710414548392
0.033958428180414,-0.145354865815232,0.414333056431107,-0.587510631810823,0.599067008613908,-1.49685359002217,-0.546669128993066,4.77290344505413,3.47045334031365,2.39047389251255,-0.592460392778883,1.61237891866509
-0.00214885749338223,-0.11647670324706,0.101977092238121,-1.1268790515963,-0.0649742803340663,0.375041844238023,-0.659430188704152,0.91508712712989,3.5729579526726,-2.36946188669322,0.21699104238515,5.23271027546367
-0.21270070542477,0.104558664807317,0.514636527049349,-0.918774499837552,-0.417823846556718,-0.880783501579127,-0.23098626429765,1.99531222872213,2.41826871559046,5.42692684558576,5.48984998922525,4.32697774729998
-0.406182083931891,0.541852591796388,0.199550854806147,-1.17717421248057,0.155241305675168,-1.06951611615748,1.32011769833324,1.90684333673122,0.823259093027718,-3.42672691677394,-2.33261223660231,-4.0870125341429
-0.137055935282255,-0.055556833298394,-0.423848690587851,-1.25846445892889,0.5675843811049,0.866153872745817,0.336446232495037,2.74946024365255,4.91947555655482,-3.95676811054703,2.5368552912585,-3.26278744607943
-0.59361570201421,-0.0288569799395679,0.0924577254036465,0.717712624900513,-0.416609886724677,-0.15284365514504,0.233166144258573,2.45632010723007,0.651750215300688,-3.40782791625947,2.06217352935173,-0.0345563459864513
-0.200127753726151,0.228228436550771,0.04845144828022,-1.483415716918,1.00228099415508,0.313473606022715,0.0597404758666498,1.66551951713182,3.53901292418224,6.24238764511872,3.98146740071633,1.18592136690957
0.170360587876572,0.0292106472410034,0.396816801116767,-1.46423275475424,0.982502552285449,-0.622095953329503,1.49536376025742,4.96382585996732,3.67890543442075,-5.87570408561634,-5.10726084012172,-5.46170010826269
-0.28456133710414,-0.145682835071612,-0.551789568885363,0.737529756094671,0.118178815369171,-0.240723730084649,-0.151634785482772,2.57633385701539,5.81304092317976,-4.17224498781266,5.94122410209615,3.36118833215974
0.231425343951174,-0.272543681715536,0.418486949992387,-0.529717840328074,0.167788272989984,-0.12824822480208,1.01862321498015,3.74338414076917,4.08986410513994,-0.290505164711832,-6.11810897756176,-1.84718000713684
-0.0288994504942518,0.0522817370990461,-0.045253286566744,-0.935479437341158,0.287297712743538,0.392453985793971,-0.0249071701840384,4.18571344907993,2.965285188684,-0.535265610769929,-4.55326428466862,-6.14635344268397
-0.417214089764089,0.0703990254096581,-0.288551414250517,-0.300985220101895,-0.0304659625275964,1.45248706398206,0.811405085696482,2.32456454964167,5.86380836106084,-3.51564039929704,-2.02685472891899,0.300287697031617
-0.405910638924243,0.318971759919421,-0.352152924562717,0.755082817021328,0.14721136786676,1.22776911026231,0.800765128964168,2.97758447941394,1.03311028115857,-2.35617716755036,0.0567895613318816,2.18465106567866
-0.202753295297684,0.504211468059756,0.587888421032845,1.5061373657393,-0.0991146067786644,1.07177980232229,0.848701118117672,1.46410963880818,0.46039468369191,0.239795533098477,3.89543302445128,-6.12480169954512
-0.0997532651492604,-0.023542113253341,-0.0851648440187461,-1.35630362768493,-0.0675659628273686,0.7007351266391,0.541829996929943,3.98930149608364,2.85636142916128,5.21238836424248,1.81409489334729,-6.21733956529219
0.702125592177318,0.0983551058265008,0.494526680508647,0.757556125869538,-1.18673205236793,-0.16240627728604,-0.0489194811770108,4.77212513572567,4.9984250844625,1.87432691960258,2.18275876984027,0.986454812702553
0.0352797005797578,0.165756549120018,0.259965082366495,0.194910822250992,-0.976250189339475,0.314868201179412,-0.709623654927028,3.41626903766415,4.10670720794512,-1.85442395839864,4.47147113801516,-3.83227197430128
0.0772478509106987,0.235473353894579,-0.0794806080167997,-1.40628941907369,-0.935182681079549,0.842387794604183,0.776981240818645,2.18684020137957,4.68033374834174,-0.908079501146246,3.86665224635274,-1.84053519779705
0.319486971513938,-0.00175249217981172,0.0540031059182428,-1.31593744239017,0.811415149446019,0.740769698363306,-0.899459221335987,4.35449127858872,2.06616801696606,2.93104396502159,3.07214024683574,-3.5010323107707
-0.421092286130087,-0.633567798617139,0.533882003545841,-0.507436968036958,0.237578569037959,-0.692213141657216,-0.898143210714735,1.77546166498721,1.13255994267057,-1.54462561331437,-5.94856943946825,-4.88931884121383
0.224997888715463,-0.39618062250988,-0.0651613204482783,-1.36553166066378,-0.385692320567617,-1.56959434152147,0.548409054636204,4.50193542675206,0.784185294574469,-3.3715282014118,-3.67408429190126,5.24436822349481
-0.259888414318354,0.270322724402867,-0.167834532095695,0.305797609193566,0.306390634900862,-1.31755834968022,0.663864137774454,3.38611326213076,2.04299152756465,4.20790006425946,-0.812969312968508,5.32130773813633
-0.0843844728245636,0.230786524861995,-0.440586656622727,1.14537642180535,-0.294573872398699,0.54421722233826,0.647330834760689,3.04190189141555,1.04090831670553,5.98213968375311,-4.27465642030981,-3.7372119144125
-0.352013588989726,-0.27777872009181,0.0842724101790317,-0.809985146138602,0.695025244327568,-0.0320741893946549,-0.216198892421122,2.70687469163634,1.15635003780645,2.88170652957622,-3.91134484516886,1.80824599621236
-0.233968854230727,-0.0232462786198983,-0.0932938303657889,-0.567864275001375,0.284591605839741,-0.463914769608237,0.798925706094669,1.82893788743614,3.70895150910964,3.12812621976945,1.73690754349397,1.22053768560073
0.31842374107309,0.475413833730933,0.24925257610042,-0.115178238379658,-1.1358230323134,-0.221297164636936,-0.642511348913666,4.19258948153316,5.64420835929363,-0.935423157991047,3.54600129093665,-5.57769619611252
-0.195249357843202,-0.0412304577982107,0.460521917657936,-0.0857764000139989,-0.323507586252241,-1.45589370176783,1.05328680333975,1.74506752894302,2.55204123279595,-2.51225566973702,-5.27657323155215,5.08474314495668
0.215638286214092,0.158461738024414,0.121860152257864,-1.16362402331845,1.00309738555022,-1.10683006373757,-0.4079226818965,3.28089321065742,3.10852630215023,-4.6223994167077,-3.68880708833624,-5.3257684962128
-0.0637944644218185,-0.035537770520905,0.213843077018276,1.46248925104737,0.228448633102329,-0.847095205696749,0.0248867543520577,2.05953884351348,2.33828458568521,-4.92519633620756,3.61348298791419,-4.94381280993632
0.139040598406545,0.273728439879258,-0.0157661603520297,1.54331682304352,-0.827778692515562,-0.453657573503994,1.52589927236109,1.67659648878771,3.54850650312794,-5.71964221240816,3.60800970523491,-3.90052669620803
0.277590914847756,0.203408858615274,-0.110823086029371,-0.73670704703459,-0.977067881758558,-0.631705194203719,0.0876629335728989,4.23102998652819,1.17422153455465,0.64198036447381,-3.56109318587229,3.25715361749696
-0.47038954526822,0.553886329690846,0.0125504579383308,0.548737237487144,-0.0902259003232725,-1.33676365390017,0.700308734449748,1.67381873022854,5.17583029830471,-6.03468407772137,4.52687161862282,0.740207121646577
0.317474580493949,0.35223772086057,0.316798822870205,-0.771736520655998,0.991161566494212,-0.571711132318968,-0.304041853850153,4.31574898129011,4.36072500746633,6.12392132272067,-2.78866552399676,-6.23551261369432
0.29806591581436,-0.24570624840941,0.485510242803528,0.840444776049,-1.0392784097598,0.434220430723605,1.3631452466555,4.76567819655035,4.42772547501994,0.209717431294639,2.60068887875214,3.5252383799951
0.622910713534524,0.0914995690878077,0.496447969874017,1.38749209552311,-0.732197477006592,-0.97619034525312,-0.393088816571957,4.36827736201131,4.55009135035646,1.42265404196579,-1.23318916931786,2.47944569526083
0.149861394126693,0.787905102163972,0.179124543805336,-0.140531985110646,-0.309251647171853,-0.894568934684019,-1.5610169955196,4.38903406647913,5.36943817861593,-3.27585543368235,-4.76558011109718,-3.51501507615463
0.218100071426056,-0.14511359473763,0.443938164851685,0.827600170058591,-0.431702938380067,0.923785847501627,-0.621731455100434,4.87972089048477,3.38418627313367,-2.68026045877089,-4.54456899900672,-2.63712245210365
-0.080025609934719,0.291856417493926,0.22203726515674,-0.119151562040161,-0.871409726825027,1.25152414072881,0.357736578987383,2.34355861661114,2.90195857212375,-0.702245144231795,4.12347055462862,-0.925536390299145
-0.0222027629804562,0.265117885951962,-0.161702310611256,0.534329038485441,0.0783282832985716,-1.1702570157687,-0.484751449835287,3.93558860995827,1.57633289421561,-0.411601115706901,-2.3277230235825,1.59411451128588
0.159705089934299,-0.196207918305184,0.0335542016693434,1.23133001150716,-0.104221699913874,-0.226945423628734,1.18551289505638,2.90421286614784,4.74023202335498,-0.540784955872867,1.96323568319113,-4.62642275282552
-0.0612327902935995,-0.0995748885654972,0.535576472950398,-1.42578791968444,0.205877953241051,1.20674055348558,-0.210544805365095,4.99899153976752,3.73438044041458,3.35238833371412,0.0590695834458659,-0.0244337390246168
0.0287230494732443,-0.00726914932435996,0.133345456142437,-0.658607766916624,-0.844303201084082,0.444804600492669,1.07725161886697,1.18036273357981,3.55337990283406,5.5639186170586,0.224435984523705,-3.83945587283081
-0.0269965664652868,0.0941834167827492,-0.300423757595128,-0.968356624863853,-0.334748993495091,0.219340739642683,1.09308383919492,2.0145668318583,4.26966498800352,0.505933898310069,5.64024314370259,1.56246108335931
-0.244441440606812,0.431031916010285,0.84142957750755,-1.12607582399011,0.497079678786402,-0.143520282237284,1.0617890826444,0.908662876271516,5.89166428931438,-5.30659521424714,-2.23518645327313,5.60651635179385
-0.169828834125277,0.378670861977541,0.480781505110759,-1.15907049689654,-1.24363318514655,1.16484816351246,-1.54271330845571,4.60609496288369,5.1715876818894,-0.756108288219312,-3.06939641897314,3.80370868479438
-0.762215440598572,-0.0254189206157473,-0.0406606456979174,1.5569639140444,-0.0373216506491459,-0.946262922682941,-0.0695485642409375,1.48227389473058,5.54608696120624,4.97590535756112,-0.106246778375999,4.48245577030974
-0.00247271828886336,0.23079140830493,-0.0650615890345011,-0.852266256056879,0.81341860491532,-0.560532955728868,-0.255794676100285,3.9741299617234,2.56830410790993,0.0721563193610013,-3.90120835878558,5.84322315194987
-0.519210926504576,-0.08984399716136,0.563773130166172,0.203254425268275,0.804476773046003,-0.835824231144953,-0.646490482035881,1.34214919918676,1.14265936217527,-6.10609631555077,2.71365369202147,0.810509796150447
-0.0635993001114441,-0.310431264985299,-0.248864899159984,1.50293261102191,0.611229947439666,-1.220028520826,0.925445183988612,3.17372032633496,4.78161527862245,2.46004566956876,3.4915469348476,-1.17517092722552
-0.289894347965916,-0.0930961747413431,0.586535160616333,-0.503067216263979,0.105585929653715,-0.918322422402963,0.464235135638103,1.68854526847101,2.14022794092375,-4.1141716810036,-1.14809849083965,-3.2494278469893
0.498320286034965,0.277836706362711,0.18534277972967,-1.17834273104716,1.02693723768198,-1.33589544642926,-0.292413179453997,5.29808323777827,2.13179441754179,6.06316003262691,1.71287329451378,-1.56965255592429
-0.0908512292434561,0.116647230194438,-0.389205609312149,-1.34941166995483,0.536888416106938,-0.0955088265363668,1.12307067609325,3.68426006295334,1.74802843513565,3.68013298597699,-0.842719553198117,-1.79056747973308
0.302056355140048,0.0367052548458084,-0.291782383125781,-1.46528907944788,0.173964799826028,1.04935502842235,-0.53320072935756,4.03722420089598,1.84141555965243,3.8739357724803,-2.57247687848379,0.554445658151902
0.795202927167183,0.0522418096159895,0.538952402285604,-0.673627960311366,1.24032294379296,-1.11157066249856,-0.0379457526111002,4.7541489022346,5.32430895378009,-3.96614206886428,1.07252036638248,5.00399218875929
0.170405669958762,0.195164897741959,0.167787898440552,0.652726508814563,-0.556022668931375,-1.28786347012991,-0.169277748836424,5.05597029812027,1.8995302560164,1.36761286931512,2.29278093689453,-3.41546748557578
0.0523556339420487,0.14440592999352,-0.22500852564562,-0.883273195292975,-0.638181169669415,-0.533026338526118,-1.52754441048537,2.76369798198182,5.60584343048393,-1.97256694790759,3.51537049428715,-4.08738404040378
-0.435553595429584,-0.36968046302917,-0.00172968889475965,-0.822373928426179,0.854430246900684,1.55494712516308,-0.496519808392919,1.52882826906831,4.35983599975451,2.5045734656414,2.36872715715881,-3.09891682561581
-0.155753444007906,0.293774349050029,0.489702472893829,0.0884737188206831,0.5102917023816,1.01451216849428,0.60431714493574,1.90410814837133,2.71812368473549,-1.60947408662464,-1.81825440754716,-5.55867363168652
0.473030559330212,-0.129092179245804,0.356531954482595,-1.40556157014821,0.369018680263176,1.45481179851856,0.413580075831913,4.08236555440938,3.77995659489129,1.8637530607829,-4.14764730985663,-4.40518144458422
0.488074143361384,0.125593175201259,-0.109030077043415,0.617227311104862,-0.080855644105394,0.53960519430133,0.044532212605229,4.84479853858693,1.36542357644934,-0.466977406668213,-0.893062629277721,-0.0340650944019814
-0.29333237754411,-0.528571685268846,-0.00336904212907102,0.566158018448378,0.596760329105919,0.095987201461962,-1.06339527676041,2.42661096291229,1.80337000385414,4.32945325525391,3.77408630786907,-0.921879525783854
-0.0907603206000615,-0.0344245372765092,0.503818501779318,-0.381690460857634,0.196427303144933,0.0530063740404643,0.336198985435371,1.53276662636495,3.1956189844009,-2.55163817432744,4.51950717435826,2.15636885129367
0.0958556474612992,0.0653585652549976,0.255699151095071,-0.793992861567771,-1.00157429617708,-0.499276005386439,0.419320977499749,1.43876806840832,2.97629770722823,6.11445387914765,5.63349356750822,1.82319992633432
-0.0295020673301767,0.253546445962072,0.389493874717835,-0.863746789771205,-0.556014759373289,0.178820508392274,-1.09413858659399,3.77293026649226,3.51061111217132,-0.393756696839202,-0.904307829008855,1.24746054039568
-0.0638026579883161,0.0064422234979183,0.348255596082981,1.0435472567112,0.344091054198656,-1.26562327781289,1.0994628307394,4.28114378722601,3.58759573082996,5.33699014664981,-5.46963868168561,6.17444232879538
-0.202633029529296,-0.0198209946424351,0.303424089773632,1.0550277700383,-0.166759277208209,1.54580588066476,-1.40430906086879,1.77794669802453,2.70746568713894,-4.93218892470352,1.55408821862724,-5.68009296060815
-0.172962913873389,-0.448971948173374,0.0924634244624654,0.106818241636555,-1.12782078060746,-0.849134449402124,-0.676624033187272,1.14964029900448,4.28536319258513,2.11688263420403,-1.52580126498856,-3.91826648814977
0.121732773317796,-0.0361121232995461,-0.339919178021875,0.974386620095048,0.327047506946601,-1.002692719482,0.775988556281678,2.4172568516569,4.80117345888987,-0.152041282354564,0.322571751179075,-5.92515873335063
-0.37135123220103,0.428775449080886,0.19710201759479,-0.445960953006368,-0.0908681733058767,1.1235792184657,0.453118254064383,2.46389335884906,1.61973568693407,-0.830845998293927,-1.47695749118165,-0.379642118890345
-0.00427631238838706,0.0534030071602199,-0.452856408106286,1.10928052581015,-0.0303553357691528,-0.303271191207492,1.50634138300987,2.52615985899436,4.68376667906107,0.663097174674929,4.88996548329385,-1.8227162290106
0.60856642414753,0.62805895081913,0.40926218108639,1.26812284036167,1.21134750597057,-0.690261250164067,-0.799476644801903,5.00673879906481,0.576273387160418,5.66433463270744,0.708830207533751,-1.55366564067728
0.142010989634236,-0.0480888699073493,0.301133899241348,0.451024618432579,-0.101916857346318,-1.44543191987579,1.55525273900312,1.13750591321483,3.23548173042734,-5.89240793198248,0.894420717365176,-4.01535113892615
0.157904873727822,0.0796147205754084,0.706395335893796,-1.13146536276251,1.08152014634158,-0.20235949229924,0.411420461706663,5.32395506767652,5.24853006706582,-0.605243539954896,2.61959655166165,3.48677514644305
-0.129732759421215,-0.19573084910135,-0.431797622147716,1.19950889893857,1.03670493383772,0.495938752018967,-0.0162009288472391,3.27107352476763,1.17901487421812,-1.64116893702366,-4.49598033182838,2.85123099461077
0.0337145102244139,0.0563957296553164,-0.553897191883063,-1.5434325193358,-0.0413914634925295,-0.232178400555833,-0.0722158079138775,2.90961217319148,5.31088588550862,0.347067728780682,-1.14239829837581,-2.90418850081098
-0.0361587424837787,-0.505329937261265,-0.456815718838394,-0.140771761568545,0.0731686321633691,-0.878761795084543,-1.3445638461355,2.77010621231434,0.476346103794401,-2.62443698436668,0.0441018014296937,5.85508757652214
0.272737740070987,0.0538701442816521,0.274344161804633,1.11030330134437,0.765423923434923,-0.82456345098462,-1.22715976713609,3.92682804926233,3.14121258185951,3.48211904566216,-4.47856654907678,-5.23763014163459
0.566295603690252,-0.0498535396463467,-0.0337501486898712,-0.829177339053096,1.17739109604261,0.274049889410631,-0.316614089043265,4.48916460689823,1.40882258021385,3.36498743859511,-2.635193087494,-3.55764649075007
-0.0759402613202364,-0.118284525630608,0.36961674689859,-1.47575009274177,-0.411337481102239,0.52247573545274,-1.51828275495015,2.68172205502039,2.47327536863576,2.00238752375237,-5.39199840349116,-4.36550704877753
-0.199764029885896,-0.130933275624271,0.216680522823752,1.03608473881861,-0.404379743774517,-1.10766445228539,-1.51872165484656,1.38905611116005,3.99464234225123,-1.22325007233832,-2.24904966639139,0.72774358268388
-0.0354497677107885,-0.119067786582239,0.649195759740275,0.105585797487328,-0.358142585346146,-0.663247144280618,1.55025176571151,4.65944430660432,4.26346699196038,5.25599244367242,-5.78393965497077,-5.3993492132555
-0.169643994974079,0.0496014224620705,-0.519326551499235,0.492299321563276,-0.397472184323382,-0.169032204981183,-0.081661648413071,2.45713608515781,5.59893183636874,-0.13113056562505,0.498245411962572,4.96698824494567
0.615382538692215,-0.0660360173519505,0.0643558941507352,1.30680395732421,-0.131414922769454,-1.44538361477379,-0.16765094799945,4.85252043995334,1.75673189461856,-2.84239108692075,-2.15687438389276,0.597710250865285
0.0607265359017823,-0.0971582852652322,-0.25285292822492,0.0192847894522732,-0.426584613945139,1.49332914947369,-0.87924170162727,3.91951355561634,1.13410512283421,-5.10068638290419,4.65196668119357,-3.30660539133957
0.301970200624182,0.0498584364762574,0.265179695773806,-0.979266080953529,1.01322662457691,0.739086290275647,-0.358128961510117,3.46624037226407,3.28659869757731,-5.32784106256871,4.7014051631687,5.6691373783874
-0.0907711641375094,-0.135725129073068,0.27430877630936,-0.291986038003005,0.931954764029433,-1.20511783622002,0.9817706509883,2.16051650118353,3.29809053923136,-2.01794896046264,0.686969687848175,5.96152981109841
0.150215872080647,-0.103011003848313,-0.261837857259968,0.0719662678318107,-0.545881967452314,0.216430138936605,-0.591552730386441,3.90756735387161,2.16353528666434,3.44918304996154,-2.18893651686607,4.89871484823805
-0.0735335889137658,0.0118255680276277,0.336835643906679,0.212808517488553,-0.473240153590317,-0.85542416061853,0.790763126891799,4.33337929819138,2.97006600909306,-3.63464045680682,-5.76199408596126,-2.23896533237903
-0.158342449957333,0.186462046578818,0.221624397426607,-1.56841090733164,-0.832097561988845,-0.861437647887223,-1.45420345266542,4.02128060592327,4.09895305167848,-0.873717346182326,3.36513553969295,0.45249609016256
0.088325737600953,-0.484127997013912,0.771853038655045,0.332581398116873,0.536601137806248,-0.121207001918911,-1.44557267410433,1.48433639253233,1.41860502071091,-2.06510957992003,-5.62580143431713,1.32093642155585
-0.232893697115501,0.0596143024232206,0.118913672767136,0.646504622980065,-0.812493457121963,1.02189469542103,0.0378908354638876,3.67461381822003,2.76143378899301,4.36933294665786,-0.577310927934203,-6.08961896870869
0.246428463241541,-0.570288735942996,0.296389476501967,0.629749587881361,-0.403753244824128,-0.504566335915578,1.17202815444975,3.85041279284966,4.95685688374238,5.67718079322234,-5.64340142704599,-3.32918514200363
0.0407692810450887,0.108150082506763,-0.534115556000889,-0.933903910300186,0.212290583186733,0.573941852580158,-1.37179703017938,2.78608741734614,5.18629796778694,-5.25746808936199,-0.337885165132402,-4.70556406124398
0.571738810290369,-0.306646477148311,0.212324744251383,0.300969418172582,0.927055148273117,-0.610569178481678,0.857295403038644,4.69091725518022,0.574905907134433,-0.1703906465761,-3.27465739737384,5.68595323403814
0.205061251117931,-0.603717672516038,-0.131281783886814,1.05146521009526,-0.464859260489586,-1.28786727464326,1.39452981842824,3.6586087562027,5.80257297769729,-1.94952985147527,4.99953956740086,-0.821903804190686
0.175682924559677,0.157929834112247,0.835628917833797,0.239454675221704,0.493145464371123,0.0635281485733873,-0.829962795123325,5.14200649569825,4.17689076665683,-5.46748226864248,4.65489603560958,2.53061941679148
-0.0102388746486437,-0.0639722292241544,0.0522290675737686,-1.4402251376812,0.145063090283777,-0.669883891325935,0.329637493300153,4.19607649690378,1.75592988767973,1.26278145462969,3.95362123412021,-5.60317299624866
-0.076558420137875,0.381500545568952,0.46087094893861,0.517027957196461,0.213978277626956,1.49826774231663,-1.16078496050039,4.69556244587332,3.80669172803171,0.393174222216806,-3.16307198649263,-2.57511857023735
-0.115754674111704,0.173414098069085,-0.435957668132903,-0.51530591942559,-0.665654325727025,-0.725262984665501,1.17082811780554,2.78612394172027,0.693708029359441,4.98866151179942,-3.72742638605554,4.0994961156064
0.217729054661769,-0.00377208880122301,0.2113755988843,1.41887338103932,0.867642015222531,0.414680085861184,1.19936778483335,3.08146944073699,3.69496030909841,0.342652963906661,1.56855064329894,4.46158585401085
0.157062971113829,0.219016066719099,0.619053300186362,-0.323159653808707,0.0559816526316354,0.800199592456603,-0.68442910839831,4.88301991009783,3.52200961420361,-4.83675783554971,-3.43060453520082,1.20615023006347
-0.223256645871804,-0.556133920691942,0.679036578358445,0.888963643822804,-0.315989437839896,-1.07241873899009,-0.818553788005432,1.46900997691325,1.24119026832748,4.33379587885764,1.28407766554521,5.82535582222766
0.218637121568798,0.250358804624121,0.345487363241335,0.252330898920374,0.00213944555591361,0.659181755247845,-0.484813049805404,3.57552558418916,3.69788603715679,1.45398295467508,-5.53954258976108,3.14557851250845
-0.150209196116571,0.391459667256354,-0.269784148544432,0.565272585759767,-1.01730669214282,1.11213142615117,1.40809166677541,3.29896122320031,1.41376973026498,3.17836078561385,-6.19121242609052,-2.15819745227838
0.0168530768009327,-0.413966063337554,-0.351751399741352,1.09221868173938,0.183978808523153,-0.540235913386769,1.31194903385209,3.54259089024284,5.13774790951082,1.3153478027855,4.05363661671024,4.76873059745565
-0.0852813729632586,-0.0650031869946639,0.0430892716262306,-0.0604291665476477,-1.51130608277312,-0.352487377344622,-0.562387890686452,1.43061568059914,4.38530863814683,-0.749620615104847,-4.69057741602748,1.12875725208265
-0.257647729237025,-0.479924406783453,-0.0544275970572523,-0.742229485505489,-0.55706181224622,-1.29706989319001,-1.45748437471486,1.78106225509256,4.76183386266331,-6.13117293759364,-2.47123117222798,-6.01456705790877
0.0219237224530898,0.348289514856475,-0.155722024252743,-0.0139937133654388,1.41620210012043,1.48870859863838,1.56289519842649,3.51383287844667,1.98037556407802,5.39033791297883,0.0894653148673337,-0.569354260287506
-0.598657151747485,0.135796234109064,0.264587271999965,1.07970748644182,0.488574417001973,-0.942950638136122,0.276056478639969,2.07128323418047,2.04732064711834,-1.61283615554072,-3.21136115113729,1.06245228045242
-0.619399726560573,0.1512704051935,0.274832983821408,0.0207975961415381,0.225626282752505,-0.974810203728138,0.61526877559576,1.19915075467212,5.7890621567277,3.18017965327452,3.84735977413697,3.1622065792326
0.113936736030854,-0.153538696401057,0.324297875449017,-1.56702531351183,0.579127973558109,-0.37030673153046,-1.31927734876042,3.05853302066504,2.83627683124947,2.16735524733712,-0.644186604321541,2.56747788557142
0.358855328704668,-0.363599804133135,0.258383044853529,-0.017564585612168,-1.05535435941485,0.905711472006035,0.570655658171238,4.03622429856135,3.80812410545869,-4.38590545715985,3.27734032307334,3.53172596130655
-0.0412453848107346,0.696240319933892,0.22684318349142,-0.557505290475644,-0.497991022129433,0.961867827317097,1.26952697184051,1.93347330324345,1.32454090360994,-1.36848877926913,-2.25485105921259,3.96440001016458
0.0851640987953547,0.185093244880414,0.201822281164596,-0.0424060352416937,-0.440812578074732,-1.47897115341974,0.356652132390517,4.32144317984888,2.73507339343627,-5.03357833948179,-4.83761271212892,-1.59081289972515
0.0888322888575855,-0.0073659388329122,0.56707445715743,-0.719942773501893,0.272801086383167,0.93810580402949,-0.961805604472247,4.59709409454536,3.70154305456324,2.3730995135932,-0.111715521026208,-5.17516215025797
-0.355217977492465,-0.0357617119940584,-0.0833017034743005,0.359392314833998,0.645607470197104,-1.52922427934625,-0.832278150358373,2.96734842385733,1.4476888993966,-5.96304148652413,2.88269649436775,2.82638720293159
0.283122482730635,-0.0598454286027715,0.00183134978630851,0.623007504625348,-0.327669210950935,1.08645636339289,-0.532840043618269,4.70031955346832,2.73944221703812,4.58278125302041,1.97374233651292,1.01832410409397
0.295777525649734,0.360684092775645,-0.0850072361179102,0.961146570131396,0.732820427326178,-0.187979622444827,-0.940192325010322,3.27567091885938,5.35828714335895,-2.45051797168736,4.66144000248702,5.13644458560587
0.620526486396779,0.296602270057376,-0.173442067243918,1.0144382739186,-0.190731515977141,0.646157533329262,-0.534559071846957,3.97235777541937,5.38519849773212,-5.33195023665342,4.75747539912946,-3.88502714053954
0.06270726286144,0.0936931136295326,0.177790075163162,-1.13253519334959,-0.292754997299968,-0.701897898495402,1.09883143816644,3.8999536608237,2.26678512865442,-4.38094379269021,1.70112167248605,4.37043345256239
0.35081487871793,-0.2100029990112,-0.306276452914468,0.0386088970952097,-0.98329548841293,-1.0007535474872,1.01111963132108,3.72352548594367,5.70598897369984,1.13000734163624,-3.79714521562313,-0.888056330650109
0.191574958165054,0.179788150584919,0.0383909169397677,1.13482742865134,0.0296302865866888,-0.0131306107157907,-0.512877571149551,5.37396830469143,2.46852652938364,6.19146178049066,0.236301183841418,-4.11825472908687
0.0251685147665171,-0.661808859041087,0.0535024916756728,0.382555929068575,1.06996256663851,-1.22565479093723,-1.33651497240297,2.55305856075858,1.02522163690837,1.69041204349112,-1.08171512110546,6.16902777869736
-0.00375161444172108,0.113119308225504,0.657896212542691,-0.170719482357866,-0.0281285413056042,-0.398034236737869,1.35074542863888,1.54987625886579,2.55083515363429,-0.482803591157457,0.765904645346185,3.52315194040047
-0.600580129287671,-0.0439595526615682,0.0920382177391892,-1.3104921451994,0.0293216295791726,1.10766789517682,-0.0402315211761348,2.7785349091256,1.80404046856584,5.16234219441819,-6.00331323911639,4.03533678540603
-0.083077043501479,0.0295990849986712,-0.243467127442944,-0.907547711373832,0.060361867136406,-0.218857769245157,-0.978705386969051,3.98453072329237,2.32787518558695,5.95913163213892,-4.7403852274041,-3.9261125204558
0.205713766012796,0.127752497839824,-0.127873165684945,-0.135426208969303,-1.27948778501623,-0.00616988561908122,1.22346961991503,3.52007850337543,2.06956492900236,-6.27357975596844,-3.42310777643222,-4.45598935150914
0.410459429673669,0.364625104864971,0.833318652467095,-0.837182405676633,0.195109545724205,0.0920335330591659,-0.931690118662144,4.94004736778935,5.23836820710842,2.51691130344351,-0.370737135456188,4.1109122466074
-0.475378969615906,0.211810040118518,0.223823525733993,-0.0102677528971592,-0.182460523611878,1.13883616375288,-0.0131117602560977,2.52212394843289,1.88049102402726,5.3374504779676,-1.42013516574796,-0.0894615829125609
0.406737306531941,0.0476409557331035,0.143364500163023,0.781303463488846,1.12799310521499,-1.08394516723726,-0.77145545377058,4.88851530214269,2.48553792795132,-2.54375114908301,2.73437893875676,-3.8846428621347
0.114793902419318,0.595539798119064,0.482584333625176,0.1042176043233,0.0249288736649612,-1.18827680900233,-1.19948323072978,4.67084008019138,4.51362681298265,1.13751474994843,-3.23091975706562,1.54876930358891
-0.653874462702645,0.392426850836968,-0.130797315680996,-0.598683795341824,1.47247459816215,-0.270635586157659,0.434656059225528,2.35912761145595,0.710899979263715,4.78198905006181,-0.503198557931321,3.31592237024107
-0.027968120553515,-0.264935296069083,0.00358037373489697,0.142401486531851,-0.275492496685461,-1.34407808933894,-0.773181700411142,3.55629453200876,2.74142428931347,-1.48156702092232,-4.6908579639596,-3.21363988856274
-0.21507202680136,-0.192893872282963,-0.292401938360293,0.373124654917559,1.21981062840853,0.0585709090134209,-1.32153739264886,2.24699201792297,4.49996400896668,1.4453302264654,2.16658176723266,-6.17784042297839
-0.207451716908018,0.0872379691959462,0.130746770192125,-1.06742539702585,0.234369257834871,-0.223028201699693,0.560387785594337,3.1560261694295,1.62930885746289,-4.08537095615515,-3.95862080472462,4.32609881147486
-0.119479631837797,-0.159308252480126,-0.0103300632044402,1.46426311546112,-0.81614315578586,0.365510071408675,1.5161005367783,5.01908351544747,2.28381487209138,3.5214059236547,0.583765603492541,3.9765324457843
0.624985094149582,0.122816777323952,0.0184815592232622,-1.07855707431411,0.0216130844483137,1.16096381879117,-0.0511232905964414,3.54977869724952,4.75600179312671,-5.0235996335476,0.465045145587127,-1.68410293424522
0.472515588643621,-0.0262126651587096,0.192722123973993,-1.28758503771232,-0.44137822021467,-1.50910111237316,0.327689613789268,5.22357242730738,2.5392618710389,-1.34494097360943,3.65225217569003,1.82310893104538
-0.0892490878595797,-0.161569564605607,0.162268671362202,-0.587952413225031,-0.587417719017401,-1.3792625522691,-0.333373221349941,3.99904346335926,2.60208551803486,-4.57273696540825,-0.620234978179311,-2.08074727791674
0.185748630295534,0.350523717512298,0.722720821644651,-0.0624033491919164,0.749162740942397,1.16079987632215,-0.886026737403904,5.07369741534101,4.20735852714205,1.24181993601497,3.09958920949865,0.527423917298096
0.386060089769214,-0.480734968359313,0.604846164174376,-0.0422521583091643,-0.367532903575398,-0.948214762812244,0.629993227743218,5.09541113649217,5.17948404145408,-4.17904886939592,-2.97648280945146,-5.38330399591604
0.148223909624196,0.301966756389351,-0.135815361429975,-1.41476922232228,1.11971917695684,0.885061186235766,1.50379496815868,1.94534163945266,4.0441490207163,-5.15685272603305,-3.63455953417647,0.0354922500493586
0.169912062713719,0.0232387165182704,0.286522828572604,0.716890092895697,1.01695917344172,-0.14769305818773,-1.24107465340229,2.63731615111591,3.35508212853767,-2.02061980597181,0.702462770437472,0.462044360397078
0.492057726403854,0.183781828053371,0.449669086349059,1.0031506562303,0.75563815598513,0.0968189922685238,-0.343657253547988,4.03223803864185,4.14465693992539,2.35372079227526,0.772721947616411,-1.78342039813517
-0.0187743743356016,0.128828989135308,0.589517035183655,1.56947107769162,0.654153517859843,0.627842889855719,0.355352881819391,5.11890110948163,3.68610230679173,6.02670787400567,-0.741332671735697,3.01105272450377
-0.20068787055329,0.263613581377458,0.285376204225628,0.832974707962346,-0.168076429663829,1.46896311893402,-1.45266025788283,4.34288403534699,3.24433440726276,-6.21637578360691,-2.79978605614226,0.437714743169485
-0.302045038797869,-0.053628929115553,0.241708620525388,-1.49217413820912,-1.01738319890081,-1.06349717774341,0.841830209843344,1.11359118175691,3.41727105528186,3.78240914106655,1.87971610523099,5.42172309085989
0.035599527673458,-0.595668751086233,-0.291297485771419,-1.51349508557824,-1.25833011842152,0.18648718629205,-1.33602056814437,2.12877250842365,5.49769073826049,3.33015290822768,1.25337413384024,4.18420109823188
0.328414179481098,-0.643856084543809,0.767491386825603,0.869675657356209,0.45468391942313,-1.10557888928556,1.24420732363408,5.2867295691923,5.94325805804188,-4.52830002405683,-5.39672782903556,-5.35997610069325
0.245111814967051,0.607170293621092,0.572215588674865,-1.41083214188254,0.58229274680466,0.972344110086121,-1.52447734161756,5.28264422871063,0.86419885583234,4.29439161042623,2.32695250691374,-0.156361244902051
-0.525770444221826,-0.218354069768967,-0.0587863304513868,0.433583894648788,0.368566444622926,-0.118481110119012,-0.481622234481602,2.47746737794204,1.7581769717051,5.16500418665987,2.83550785305592,-5.95739218658137
-0.523415162777209,0.00251747509596242,-0.203578028044979,1.4258543568992,-0.534088644217032,-0.450982780534236,-0.120884548118207,2.14916930890965,0.494401371096023,4.83405525252434,3.40555376653561,-2.13961209684111
-0.211216060425023,0.414607323450683,0.449906807134616,1.36700330113051,0.247976690200403,0.03400362159752,0.931666279964297,2.34582660215122,2.06189963577174,5.37977734381191,5.99310524298929,0.296004689006638
-0.0670478144959832,-0.227081162659636,0.0986731571927774,0.720686246653642,0.687342511508895,-0.167845630223895,1.41979620233027,4.90226489294465,3.24293493189973,-1.59908571396416,2.64339359159145,-0.557401165131701
-0.0277551944823376,-0.210381954409983,0.823183214506774,0.576144938863641,-0.949332888586444,0.311868517177991,0.330536058381999,5.36698538364721,4.68099107412867,-2.08254411439154,-5.16480068030701,-3.95959313107426
0.191434880933904,0.0155162183614837,-0.00176359356963279,-0.726491902892069,0.250584354412744,0.134296592376181,0.0843576560368917,2.76541535963578,4.83128796344259,5.4437811326608,-4.04807096519336,4.52473248874608
0.167421077006728,-0.835932886234051,0.422595043756935,-0.433762029509085,1.54228696130582,-0.960380180359253,1.43694854033711,5.22660412906272,0.544398793611956,-5.55956963443325,-6.21033311917884,-2.35391801480356
-0.128333775134532,-0.25071532749827,0.517697408008429,0.211559001519627,-0.0217495298972244,-0.358263920174582,-1.39581460260194,2.20617028508146,2.33241103686405,5.70107355336078,-0.28964325035024,-2.78673792055111
0.333785572798965,-0.181971544878618,-0.393090592483593,1.31501975321867,0.701192097426787,-1.16729753321777,0.00944109869468379,3.79213028001766,0.956808809175845,3.2428984374567,4.42268099815264,4.32597131929054
0.121578050182929,-0.00795092111221603,0.0686222619778293,1.54728024727382,0.572896589325998,0.749899448877625,1.22681339588244,2.60541045824175,2.82578010544479,-5.00667483288645,-3.44561183262083,5.92278769502085
0.218912148304597,0.131928446606573,0.742375928320277,-0.284317738502589,-0.715287437235669,-1.18142224807486,-0.676623756847148,4.99029770451722,5.33648095570465,5.3093480988076,-4.3209520091458,4.77172918571723
-0.21273891679964,-0.0728363513015117,0.57047561045492,1.44489492209914,-0.630260955578424,-0.0569049733276932,0.41467436668594,1.82846498082757,2.27115026036908,-4.2735865415673,-0.69934167890393,-5.2304381889567
-0.136526406441423,-0.343648072159738,-0.217435023669064,-0.655153424882476,-0.589723756020674,-0.476592965048083,-1.05143297159962,1.76751326087135,4.21515870861159,0.927434206334886,4.69131686121966,-3.20902297245452
0.0910402592846557,-0.02462888128973,0.260186041527219,-0.620050422670954,-0.939853509238169,0.343408603018204,0.407175404674921,1.02890875175866,3.23262736000522,4.56443858616599,6.08371357470669,-6.15911783975298
-0.653823043667321,-0.555898881008752,0.314341199479372,-1.05804347966638,0.587145556308222,-1.09995455224143,-0.776471384179619,1.88846220794415,0.598771945034897,-6.15535445173575,-0.123209340097054,-5.7116398083504
-0.029997218728894,-0.246739253948056,-0.0216675112797049,-0.00890279343325998,-0.422563872225624,0.906952667018299,-0.696402715638891,3.77677709959262,1.98777010018001,-2.89460439451068,1.13784115635398,-1.50125306157008
-0.0354418459296066,0.02826852545221,0.190417452757965,0.629697099708684,-0.397933757420353,1.21945832065899,0.636244875675853,3.12400370229878,3.89022342455071,-1.84230096973766,-2.67608469718131,-4.60925534731414
-0.0176125519896757,-0.807092694828815,0.422705308630837,-1.05384122515406,0.42740415454968,0.769353138462011,1.37312852591263,4.52489384327009,5.60329562883495,-3.95362492977096,5.44319584938211,5.47583630425517
0.170585337802176,-0.0689119719753238,0.188901206272475,1.07099706600354,0.731839658624219,-0.809672082777488,-0.680014965891964,2.11891531316864,3.43063605021632,-3.95477205442165,-0.727578902023843,-3.95441508694605
-0.0329725303203873,-0.178576452567665,-0.596690049035538,1.44190366602254,0.563452518239795,0.0120087821845359,1.40547289723715,3.11356983819287,5.74879203860591,1.82139077425353,-0.19709380887477,5.87723179532228
0.126930418314225,0.188784673110295,0.417239702306942,0.0688840728507546,0.220237842820466,-0.371540901541397,-1.12095236050952,3.74208657662706,4.05139883628684,-0.831393251908908,-5.53728041493022,-0.0914504908561309
0.556374578085046,0.0813905480687819,-0.0687036353505077,-1.48416444326861,-0.611167024207561,-1.40437249889226,-0.109534946903255,4.53356552627327,1.77403710410554,-1.36432629620613,-3.26509233996709,2.34291705366276
-0.0948630739040368,0.598884286919455,-0.204042431745132,-1.11410281668767,0.699371744717327,0.314675765949466,1.53901425811908,1.67781432424352,4.94811053732387,-3.38049746356971,-5.55463974966847,-4.53876549402277
0.303415131773145,-0.272978319660858,0.0662618321720385,1.25593710384439,1.5140806242022,0.742458136185886,1.36707383097468,4.90474078999927,1.95724502744381,5.62676920242521,4.39735679499908,-0.821152075566971
0.0262016290671275,0.231492133219298,-0.175624500086989,-0.938435085004047,-0.867144688525688,0.448591170078884,-0.100375283710413,3.73084697386623,1.21974517935288,-6.09742812672484,-2.94666289305538,-6.0891149045551
-0.266474662814994,-0.123295522545468,0.0608877600722693,0.0509983427386047,-0.554602235853774,0.848822230148905,0.548204286880058,3.37515082183614,2.13926233181116,3.5211264152565,-4.45119154836053,-3.20592444421675
-0.53024513718878,-0.62462919478909,0.351041592802438,1.05058762344131,-1.34542223718637,0.524319494820032,-0.652465559429088,1.76177559582185,0.825824459955738,4.64925779977798,-5.17497410294963,2.30857216562308
-0.228941737255822,0.0165158549689416,0.316669103598234,1.05437120939697,-1.16313982699073,-1.5278632208243,-1.1925458165729,0.921215162199402,3.46343782684399,5.11588326836079,4.52963207217207,-2.03007977940682
0.200734453250466,0.29285297090962,0.506073114636108,1.20087049287506,-1.38705643741893,-1.18448830214776,-1.48547434810467,4.50684910002575,4.86121579223259,4.63055823644772,2.13184204750185,3.86766325111707
0.197425285547756,0.122113336151907,0.123001914254679,-0.603241261603414,0.365954076352081,-1.56775504061887,1.2487776834971,2.93207961485269,3.46656855852446,0.0770460371399793,2.41254089624308,2.29847548654854
0.173292981199817,-0.10884436117112,0.0305548179767493,-0.495404095747083,-0.411962003823479,-0.05538987309924,0.0638171691958931,4.63213382831494,3.17407257727967,4.08229309218074,-2.74141547373487,-4.04015308323633
-0.0466427249389438,0.0277195460073826,-0.195283369967341,-1.25474651716418,1.05041407180383,0.176350999871219,1.476141931933,4.2394793941693,1.79163153231178,1.02083341821519,5.72099420468921,-5.26840177305521
0.0734063483810445,-0.256549899138388,-0.199563879409537,0.0990187134140562,-0.458531802200656,-1.3842505214111,-1.30836587556628,3.68220936973209,1.59325697217078,3.33239988129545,0.856430113009486,2.088381133441
0.0865924378699924,-0.0548345418973513,0.143600188128056,-0.0706763195007323,-1.29387531860178,0.62302858341882,-1.23208896810375,1.25512898130803,3.84476807657481,-1.13435042748071,-5.18673775516604,-1.62025825247996
-0.497820795266955,0.422872926157446,-0.20478002686755,0.0285638055465466,0.576302497220443,-0.651357227065472,0.540807612734508,1.73298495794338,5.36557449010792,5.65293644219832,5.80029163364438,2.8913026924638
0.136197580187433,-0.199648731762956,-0.148918566614572,-0.315629171606536,-0.810772918749557,1.52794840827538,-0.294403587130738,4.24769142019872,1.95008735505481,-2.33210196308008,1.33073292177565,1.19188423011346
0.0134699795175651,0.0828457548548182,-0.306379540750845,-0.585493171799846,-0.454586137349777,-0.303048871669142,1.18959854139489,2.02800620672626,4.63756066944928,5.54193615669558,-6.27020509258282,-0.300473004901759
0.653237459163422,-0.216509968584576,-0.00666322603330827,-1.15947281883268,-1.40819471648211,-1.46764857828944,0.493356743981414,4.69954397876016,1.3642207382173,4.47562898227706,-1.70443364821735,4.9294595776353
0.0629384748031825,-0.834923785336718,0.491091029573341,0.746640169541033,-0.125244980617572,1.29504572527459,-1.48373732760829,1.26015278587036,5.84710030686171,1.37604178225581,-1.03506245656798,-4.15677714911205
-0.135363122315484,-0.19202886128834,0.681905991482943,0.0279280472849258,0.119237207436656,1.56916266827653,0.470928361311209,1.04045216384257,2.08287034662122,-2.21822583177957,1.35015465341239,1.89540147161635
0.00553534954091665,-0.16942388976233,0.798440672017093,1.01401896195489,-0.462689373454242,-0.30410254337208,1.08716258670225,5.08189342303787,4.04335869517017,0.982362431098365,-1.27277801623177,5.8636255158311
-0.0713681436453935,0.392965464110207,0.136977545346015,0.816447307648469,-0.364865181344344,-1.35746466251923,-1.08674233249516,4.93443972053988,2.07949361840368,0.609331871497156,2.28791207983645,-3.31162002956683
0.191594352714608,0.308986895625432,-0.379111742008788,-1.39611791476239,0.398678392579781,-0.0279504551422125,-1.04383598930346,3.18008280959154,4.78185601568972,2.41795144315406,-4.78812225903637,5.03587519541063
0.116116527294675,0.197914074380581,0.577803289757534,-0.702743524224051,-0.601272070072111,-0.906425254919009,-0.0636563105022303,5.16854712718747,3.44188795558517,-5.2175341874228,-3.73895976518515,4.45148565334659
0.432873289944827,-0.0443560568938787,0.0571972148867946,-0.0762421026789559,-1.31439541195702,-0.414886823287523,0.646939902601133,4.9337713465477,2.18139998512852,0.351875927868081,1.88995867250294,1.1848938117143
-0.396645952279561,-0.460347076676745,0.0475638475484904,0.0222690496796909,-1.04528632664836,-0.606125375151571,-0.843634068942176,2.80951847107318,1.72598910893247,4.34312570526432,6.11576914311832,-5.44663192292257
-0.117521679086103,-0.182352083512048,-0.13604911543844,-0.236039386440293,0.262291340619003,0.676192283703338,0.672074734566806,2.37068148345456,3.84653448629597,-3.03943246774904,1.8976175841589,-1.619212234745
0.497300691229609,0.498701231452091,0.431935547052652,-0.127536483443699,0.0924949532961791,0.656272719916609,-0.64458921751669,5.01011466465665,5.62841871149002,1.42691171702499,-3.58810368842195,5.52190038675005
0.228378542085915,-0.457407166087191,-0.148843668140929,0.141778005565774,0.199022086120586,-1.3569117072407,0.786823022451503,4.28100205614489,1.52147803140209,4.14886926850482,-3.26606061727812,1.65399506535167
-0.0740079835519526,-0.0947144820492329,-0.14598806016819,-1.56471968112354,0.102008655477034,-0.423617003155008,0.662057884617213,4.24149376776273,2.52488466184553,3.26506223015738,5.06344187989256,1.0985523608538
-0.14754726723588,-0.352477140472787,0.734200922041499,-0.59258554171717,-0.779176112739721,0.458485779849883,-1.28676582815498,1.45793907661067,0.923183767372255,-4.11262798778615,-4.69440788269602,3.49723212689584
-0.0958751678089975,-0.22484356432606,-0.292331512963118,-0.0433502625115253,-0.0537795021157352,-0.960961368545269,-1.44698140964938,1.96882195280837,5.27193073912987,5.95041349815803,1.32477202000792,5.98458653320507
0.202322084333649,0.562473883945397,0.215561485767654,-0.548968534192824,-0.482505401857767,1.28407139053908,-1.43428928255597,5.17715130675607,2.08108414902812,3.75700351561142,3.90348043751988,4.52387572244593
0.669499949517408,0.054700066135991,0.119566612915811,1.35505246188006,0.183556769543872,-1.41874236640305,-0.130216467965957,5.09579491620935,1.78096086400583,5.45940307086457,1.49690145888691,6.10028071405281
-0.215321672661962,0.253350859220358,0.212274159644877,1.20899280632945,-0.210319896957862,1.16913132481428,-1.46824259730205,4.16336653979963,3.51000484680663,-0.0952022281495344,-3.0257542702929,-2.17610979300389
-0.199466161028303,-0.0406524677214357,-0.230146409807059,-0.13605445445996,-0.58688749152893,0.95623282089969,-0.787087690873518,1.86767084057356,4.82567463140749,0.0300965317410906,-5.23779033444582,3.48068601133489
-0.0811009233598833,0.0510242345846455,0.298680815781037,-1.02843907682472,-0.815986352307912,-0.593680198929922,0.105711690224733,4.22789997393697,3.2281045962531,-1.2573166006801,6.11035727813416,-5.92827807509185
-0.0730807675812767,-0.0142195529241309,0.253481514982989,0.333825243308813,0.458548495584032,-1.27555801542197,1.35956791400121,5.09675047794601,2.528560154599,-3.58814025275751,1.4980784839891,-4.04671898055838
-0.0846958198106758,0.461695962663868,0.48877390709285,-1.18742390826246,-0.150798439787698,1.02185596782176,0.952556635809097,2.02497991150849,1.96593157258299,5.2265519616291,5.06320225620346,0.444609398152251
0.107685024901948,0.288607167249506,-0.2854844736299,-1.25556117995849,0.804114142362415,-1.16444163014123,1.13989227582179,2.47240667799923,5.93968247714849,-0.833279310171796,-2.57846830535486,-5.76074807536628
0.00410414138355195,-0.157490038766999,-0.361041523097356,-1.14749745612341,0.316433117367707,0.251859313181653,1.53845976842826,2.98225777691111,4.45995109405699,1.76944078908781,2.80347434182043,-5.64090674726574
0.276221245269281,-0.119068665600439,0.360788076077563,1.16645035875861,-1.37814443131522,1.37654030451415,1.3196115598093,5.07853665885013,3.43380263634827,5.82973899109986,-2.75259390320233,1.28361237360459
-0.143759129339131,-0.239706277517897,-0.118734783894868,0.00102661549837181,-1.19094607951805,-0.964114162296957,-0.325272052303126,3.72254365101464,2.0211540516384,4.01317582039063,-5.40622883761,-5.75693623836095
-0.0559718817202923,-0.213926446142204,0.6710232571446,0.807082026019351,-0.0557506608425967,0.224389745262057,-1.41561300771698,1.55540788750844,2.55346648226481,5.7225993790747,-4.89088874957932,1.85420550502451
-0.601447664563516,-0.00570932011590792,0.297076342025012,-1.24467435973113,-0.352674432278512,-0.462749895044871,0.0867755280475351,2.4756278169356,1.44548433662887,-3.51111831935168,-5.73250797506751,2.67869748835554
0.265103622197895,-0.264863549280394,-0.202325722182534,0.264118774516079,-0.889401525564258,-1.30538713112924,0.483303239621745,2.88642806702135,4.37202386098497,-4.90118647875714,5.51310772817928,4.36840606375222
-0.010844541390135,0.139897650742815,0.364295650177872,0.43933216366308,0.697234280025917,-0.366599918980366,0.499625260065145,2.59174593860171,2.67270099201257,-0.224260428181967,5.46993717632094,4.56904382427086
0.470705188373404,0.0627047911083915,0.0211788129569898,1.13476307783611,0.115947280980953,-0.404909187881469,-0.0693542731207977,3.38898975112098,5.25134741530555,5.64562337863282,1.74904722610948,3.12299844744702
0.553611183645231,0.299494651767116,0.737421095197302,-1.42861190753078,-0.736540395654898,-1.31852365383086,-0.466134104153731,5.03854499259393,5.03412576814799,0.654153496127431,4.61973976394698,4.39661972972235
0.00503271187254225,0.190183865514419,0.468125078416974,-0.0668647174356253,0.273501859477449,-0.500565140181362,0.968902852197517,1.46572985055812,3.34392569087706,5.03638915538433,3.40337315690476,-0.996347325876374
0.219937722742588,0.366089231703995,0.332278554285636,-1.22363151870634,-0.722737393057859,1.13820380306266,1.50130553307427,2.01063711348367,2.20648876345521,5.70765190959021,3.87943147963728,5.0308208684352
0.216601958976934,-0.443988217625414,-0.0529395594704358,-1.39769595121974,0.0268769129244247,-0.950403410865347,-1.53438655784665,2.59598095798447,1.65523657823215,-2.56435576738276,2.99073961235905,2.81593320962313
0.135463894136406,0.133412947174715,0.207302382719965,-0.45744064946015,0.374247358937311,-0.57527674372086,-0.120010692281426,2.53022755159031,3.61755614722252,0.423584137312199,0.635601484003644,1.4511276730875
0.145251684455218,-0.0767147777335615,-0.253854629927114,0.536178635149067,0.466887576692674,0.327323073297091,-0.327830621233671,4.37461201432453,1.74336444826089,1.95734753665088,5.7855211943268,-6.23851486973834
-0.257602529041159,0.217383855960118,0.0500370917716297,1.08030767039825,-0.383261923539835,-0.917333461425808,0.701709416167296,1.36726840069992,3.3876766136227,1.59487370250327,-3.23022168505037,5.2005155128315
-0.197114168079958,0.211371567000801,-0.31480415453346,1.17122966672522,-0.650855886179577,0.359578273796682,0.384256141579577,1.92406178429761,4.65972479432238,-4.95734423749424,0.693981819960912,-5.08993214195852
0.0356835423024765,-0.0701894218871952,-0.16291127888453,-0.0134869623993883,-0.932241531951851,-0.103876531660796,0.254418967773623,2.02065196234592,3.98159016423435,2.71216147818371,0.303925396205841,1.97947238889285
0.254666042490098,-0.0465839505428556,0.546132939249258,-0.167580018940599,0.585817722710767,0.468126068049688,0.984241642888092,4.5370390775089,3.81420068456256,-0.614464583120009,-1.1567345526866,4.70921747856723
-0.100706983774,-0.0290931222659555,0.38627547375772,-0.847092944990004,0.354354708968635,-0.47697348127375,0.637528838790761,1.71187313709013,3.51100470094295,5.13723324400943,-4.3895590167129,4.34190316453076
-0.303261249323298,0.1413683739574,-0.466358353444806,-0.701807370555404,0.745917801671121,0.650851049066394,1.00594571583764,3.13860266612442,0.542832307068882,-4.42961415781518,5.31103447342684,-5.72831977584177
0.0499882892742399,0.175014899145876,-0.413683338717656,-0.0630884430402345,-0.477838466035826,-0.66709399763549,-0.400556938784559,3.68177738083581,1.43845269635428,6.04542652454752,-4.3231427220949,0.498623472076061
-0.111778499166122,0.301518696551086,0.227458343586402,-0.285267565764715,0.744622059601839,-1.11960636516385,0.370743509607821,1.92086376325491,2.95225051413753,-0.112990155283825,3.35349152394792,1.68742170573163
-0.027813088988021,0.227039282847889,0.0490381752483765,0.826555982949799,-0.632175083513432,-0.897478991537508,-0.101944514899308,3.8991538840906,2.87957564662291,0.323101385881102,1.99262477781548,-4.00621698393699
0.276591621693625,-0.532373076140817,-0.355364657217602,1.45594537834067,1.17913616463899,-0.577466766993062,0.904934353832757,3.60838074840708,5.84104434669233,-3.48863567886207,-0.423907987751897,4.97178152199778
-0.153735705209356,-0.111612863832579,0.0846600639843498,-0.677087053051416,1.19886894361013,-0.822672924681042,0.318662454738276,4.16696137044751,2.65642241306946,2.31610301572475,5.60529281946352,-3.7675730132688
0.35616345332104,-0.646439398097449,0.32452279989814,1.19531138555128,0.269220487007825,-0.395112902700241,0.965616454965678,5.27228856493696,0.413488250428348,-3.57878188227099,-4.80818342495269,3.36054303493476
0.165535034569535,0.47508113303196,0.24483021220522,-0.554877760840568,-0.221851616028906,1.52642750671341,-1.31564689704756,5.40332163842797,2.52121657722019,5.09192813067802,-3.9134492520376,-0.743021850644865
0.0189183226221642,0.221306952264581,0.177497721729925,0.24246570975123,0.258944330755989,-1.40062855138286,1.08325827746082,3.5739132046941,2.92892266342759,0.158961405927728,0.928472913966439,-0.749970956038072
-0.417450417155686,-0.356183161182392,0.78855919192233,0.182754042373662,-0.783301537375308,-0.0694545074322356,-0.962712927173276,1.38982484671853,1.18150748953037,-5.62356440149617,0.737349527746079,4.3695911327773
0.100778780476571,-0.0785675726322064,0.299555302719427,-0.0277117780825929,-1.23022289294519,-0.229542505209238,-0.442589649868887,1.2144145254089,2.7241668057517,1.28186830380885,-0.937407698123341,3.90463817926109
0.164751076449185,-0.0812824936329918,0.425930453655942,0.756838913869737,-0.821720999112907,0.289414243994607,1.38822658474252,4.82019449594386,4.28806171299277,-0.373234718832144,2.29585131764035,-6.11456584370767
-0.136349304225006,0.344794906774873,-0.0728125778117832,-0.370326204262791,-0.569653389025389,-1.27954944985593,1.51574971260385,1.65352678819704,5.42475990624568,3.85925684367569,3.77166651008368,-2.90363513348775
0.000320346355123714,0.231667495621788,-0.440747134018806,-0.14430626748514,0.298290211636215,0.522760512839564,-0.88230434062165,2.818500446805,5.10504433172927,-0.623547802717371,5.47165052555926,-1.85128617291138
-0.0989164460027989,0.0584103301332698,0.712074452415119,0.00130500395352024,-1.01819050036385,0.150731863642111,0.375081550649116,5.32293568643859,3.94784631754407,-5.71143786212118,-0.457955101366172,-2.07657585841895
-0.455572922723526,0.0371411580441954,0.380487441776257,-0.919603908021417,0.343608642186986,-0.61440023012728,0.101101316416837,2.16480193294331,1.01871580472579,2.1147818029583,2.27903389449349,4.61360851088494
0.276163781426098,0.669551284200237,0.26157280141248,0.821344135337727,-0.590036899104437,-0.436353565278654,-1.15490759914696,4.49668862771054,4.97801995522772,1.8416008061595,-3.7080576762104,-2.99807572368528
-0.00792168492234093,0.242219826323613,0.158201158837034,-0.399477724745747,-1.11287451326292,-1.38911048339104,-0.256049799263114,3.33127082911804,3.01479486218096,-0.408911056389145,4.27056431419092,4.65084348770584
0.0279823466475785,0.0359754819298486,0.221176305871771,-0.890537353210356,0.695402941934216,0.00119704489536359,0.995111927481493,4.85600110879885,3.54065906891829,5.83125002999309,1.33887576698073,1.30624583893272
0.0763504043587978,0.219604659931138,-0.367504365775091,0.956317662944346,0.501846834710913,1.21242321524062,-0.567692901693429,3.96387115771011,0.623657658598874,-4.59242511590792,-4.64651395984275,1.95031689509164
-0.285354234681684,-0.667840454350369,-0.216189265953671,-0.637582348528404,-0.30558217493937,-0.899681160559115,-1.0199727445512,2.42073980359641,0.580642299676951,-3.34599271264542,5.8336149142569,0.114849119214483
0.063166597587325,0.437809855588095,-0.295400092193393,0.453262606790197,-0.686712421769494,1.57015396511219,-1.09618172942043,3.24600205864195,5.63409773569205,4.59534598049133,-1.35634029295958,-2.71600089608029
-0.199779448872455,0.103706408360547,0.482535498751712,1.00877269408549,-1.14290516247608,0.702031679339595,0.822248613860583,1.96394787548199,1.76038827042466,-5.22652501694432,4.57596965183509,-0.654721535725563
0.308418025462016,0.0268407477730845,0.412576930580405,-0.852549691811563,-1.21419491379346,-0.439022148156447,0.194107262425077,4.21575290628803,4.80784828406684,-0.659632179685146,-3.96937019595827,4.13097884541975
0.179812335802244,-0.020743162625216,0.302583069496085,0.506277682997964,-0.922055121598338,-0.93688330226432,-1.47341336392218,5.16878123685267,3.57420508641473,4.71727401182807,1.36427351691959,-3.12073770406598
0.286328740135434,0.157690165740542,-0.554543121276252,-0.541210862035406,-0.180745493171702,-0.598975076973768,-0.640476734632056,3.29099048744377,5.73845381511376,-3.96474516443579,0.12438668822738,-1.96301658658455
-0.0642643056825026,0.0348609461460334,0.257224455768152,0.894779267728109,0.711199804166124,-0.957203035647339,0.847367162204467,4.51595717295985,2.71762235265097,-3.71810632152123,-5.44011428436984,-3.78689759457159
0.553457000763603,0.346410615834473,-0.212884099994302,-1.24314634412113,-0.544011791217727,1.44151575796865,-0.715023817196815,3.5898825429093,5.23830705634852,-4.67178780541998,5.75776953971627,2.30179270961612
0.353546862341811,-0.000486794176518396,0.274680448308471,-1.20553558567619,-0.525388407588231,1.5278348172901,0.760153065238669,5.33283615191398,2.67008233561271,0.396889537733875,2.25205635105209,0.161793813498551
0.0330510563250735,-0.253797613563473,0.558015393695847,-0.0593949942363929,-1.26181060723618,0.132257052108005,-0.631107182210397,1.35088510126889,1.93291987409375,3.37850453231005,1.76912764023369,3.78663329393678
0.0631926400162094,-0.115671940906436,-0.0391885476226713,1.1247698864355,-0.188731981261369,0.977689099534832,0.0537857374638415,1.92590111554119,3.8607335892457,-2.46293965075946,-5.91211615446127,5.06840904820649
0.311677404619596,0.0720796922256677,0.0105633020607219,-0.667286156057934,0.896466496454505,-0.468190636455081,-0.250166377651358,2.80638476824826,4.49741780226625,5.63549451363073,-5.37192830646434,-4.11295942820631
-0.1865476137572,-0.0964117246740901,0.462328128514461,1.40412360783704,0.0245306158452416,0.526424638052369,-0.558080407105921,1.99997809646149,3.11627462817808,4.07727971867442,4.44814855342311,1.20423456786221
-0.168808662708625,-0.296399337979402,-0.266247042327561,-0.670447522357786,0.0209045746010664,0.0758299951219067,-0.816268289005987,1.71894160072315,4.50943764425899,-3.30226554389481,0.496257171274257,3.13255475807947
-0.236939700604705,-0.611901564405251,0.489403656007347,1.07983809800265,-0.360314445190424,1.25885096021079,-0.853730616546752,1.66452589666116,0.554925534614018,-4.42878060151183,4.41631155300117,-4.96829166062106
-0.0135596783374129,-0.26825363204145,0.0790881561765961,0.130861894853891,-0.941875773724682,0.183242439234717,-0.86819469475452,1.02131208321536,4.13270992431906,-3.37151775902263,-1.08583849825316,-4.53267516131129
-0.223304310410357,-0.167442825500632,0.307549555810528,-1.02986888663509,0.604705706734693,0.77617638145842,-0.38573326722752,2.79870075222009,2.9896567592699,-0.969598373288803,-4.99190824247877,3.42534465265282
0.0945376548503122,-0.431031650562999,0.0342508228085744,1.37853647385805,0.0609739519777319,-1.53454444758957,-1.13975095420258,2.79804234600048,1.85999508367736,-2.50060793657155,2.16670332993525,0.223514563454614
0.118530911300462,-0.160672334755662,0.134957284225524,-0.943770373181678,1.12154251682963,-1.27306198229521,-0.973620245464563,3.001529184491,2.2398187238749,2.56978758278403,-3.44198919928361,4.33524879160242
-0.481510853696478,-0.0694771353874358,-0.0310662646344879,-1.44638041156106,-1.18848419844332,-1.53846931252362,0.0824029225296681,3.14440418633046,1.75731669371639,-3.94388416930442,-0.354132101899364,6.05478420544003
-0.00240231083695587,-0.452417174621229,-0.214934953167444,0.454280251373971,-0.749489444802631,1.38337283970609,-1.15325906694024,2.15897634140837,4.8311840849651,2.07064757537079,-2.78020383166885,-2.32920686752238
0.261673785140542,-0.127401867382868,0.213355795017722,-0.984631847097881,1.21644093985037,0.914622330734051,-0.251489975877939,3.60802418502388,4.37426779380776,4.48996841078228,2.27591386029194,-3.30518085607227
0.0537424047248233,-0.303120407045173,-0.260376165021338,1.45255685295043,0.358241326544308,0.386634132223936,1.33744050629471,4.41761690523656,2.05908424146369,-2.45087402965957,4.78990235582969,-4.69883639601317
-0.0866796104313786,-0.0472620047114598,-0.0596260907129546,0.360941472394722,0.351567084024646,-0.725851867461782,0.419279576376921,2.13288503065374,4.98044545549294,-1.70244856756837,2.93256483192092,-3.8651907834074
0.0311249114346301,0.0590280698742201,0.309521619272341,0.852133437515297,0.129366320168834,-0.639206687679794,-0.0582894319799654,4.51926136746154,2.56267050394137,-4.25278604068872,1.87216582475388,3.18338596305015
0.243232549741248,0.0599543663495616,-0.146212133931435,-0.311975858765875,0.644511281139263,-0.058711044277084,-0.690545201916822,2.92087978107031,5.39209959989761,4.67450930476141,2.60359629125126,1.14229062226388
0.379482715755341,-0.771910135288172,0.486891710357357,0.448113110969889,-1.08827134596769,-1.04892686756581,0.997085809059259,4.9914253792578,0.345704943390265,-1.29147397837211,0.771696844917018,2.93956482582901
-0.189936083464582,-0.539918800546543,0.217158893854547,-1.16147101807396,0.63526872330812,-0.471742762313532,-1.29599253972516,2.68669521743528,1.90307245506547,-0.961201020952922,-0.0254012509752153,2.01081060276788
0.106758760532972,0.028996352965656,0.413466374137139,0.00683288955710946,-0.117466427851767,0.0424870915162439,-0.0118245181601038,3.68826000716333,3.60490139559353,-0.900601647286106,-6.22065046390561,-3.83881996004376
-0.0329020955310174,-0.0174006240849872,-0.046524490471577,-1.56645391423263,0.676757727329553,-0.782972851994867,-0.564837454058525,1.53963020438775,3.69607974054911,1.40114374701165,0.00117193465836252,-2.25127909845306
-0.831551261353545,0.293503720858728,0.206255370752989,0.517456948224013,1.07375524218857,0.708696828325106,0.481474370343508,1.736143680074,0.364663439484223,2.95236847966836,-0.70995166092258,2.48615157288097
0.0390521567474043,0.0393207365842,0.333673099996671,-0.758974681949679,0.514926144770769,-0.651426290966528,-0.989465498979725,1.15682427360438,2.45656776363423,2.4629647893792,-4.99113159578529,-3.82225974784061
0.522494301836042,0.271537593922708,0.057158113149227,-0.0831565164570199,-1.37026430398879,-1.42673317465568,-0.144662015200158,3.69135023762189,4.54728097064678,-4.90421436032943,1.56606643481609,-1.41546942454036
0.0736556121060747,-0.0652631425777414,0.131449147918641,1.10811919167972,-1.02075704661165,1.46566453640351,0.53435465290449,1.79639231836602,3.29849518430487,-4.11972683568836,-6.04843286238007,-0.163988039862613
0.0212835781255884,-0.136279933662094,0.203404819882183,-0.513370452764146,-0.538304412011602,1.55958495582595,-0.992184776996692,3.76937477134016,3.34714168229147,3.45506554375749,-1.34510553409569,6.15063687407617
0.295110493354082,-0.0539103276055158,-0.353738561218307,0.83424185678081,0.174580112912078,-0.399910349088463,0.0477983776893716,3.04549629643106,4.54344940926687,0.91342803283773,-1.72831179513617,-0.135154011944798
-0.372439548484518,-0.134713606875187,-0.251055943279661,0.121135078807694,-1.20822568704335,1.18657794699876,-0.976600597575094,2.65868950578467,0.499996414329305,-0.470873715008167,-2.83404188164249,0.335721402547832
-0.165683558753778,-0.0473742822332879,0.0901683115250753,-0.883041572431638,-1.02303058836438,0.0500645752902785,-1.47883524523989,3.39156847061302,1.97824900004111,0.973776616775322,2.92507224393233,-0.749736980134052
-0.622111035572135,0.215476661897414,-0.263169976019124,0.248591394704363,0.277201537326234,0.0310078538708432,0.512572276149034,1.95680361134899,5.94369968292497,-3.23108379023794,5.53961323245854,-3.55352141900746
0.252031907872454,-0.15393004613791,0.659239023308562,-0.725875228712244,-0.265858366660468,-0.799979714894689,-0.0076517114316903,4.59904748851432,4.35880885451399,2.58339964976102,-0.748445996928825,3.19405757078371
0.023934892881828,-0.250769525718233,0.128905243586921,-0.135460990174845,-0.623914070123994,1.54397175129156,1.31932307239864,2.87545531594522,3.29875756127305,-5.45335768469087,-1.37258603732138,-0.411692317314176
0.0917635666053988,0.355487863552978,-0.0168805507076118,-1.50452871997301,-0.739746644582421,-1.02810837703412,1.24136172941679,1.3743583757061,4.44057678230862,0.571407556251201,1.3387637034312,-5.90892179326078
-0.080328183142692,-0.716621724231175,0.0188149055741578,-1.43997896078707,-1.41329481047012,0.785674731884246,-1.10977583660488,2.16133962524993,0.358993273428887,2.12569957942765,4.65279860907384,0.590221181432255
-0.240224028197907,-0.13119299898516,-0.202561911513565,-0.984689634991807,-0.51808156989419,-1.39719219597676,0.135603854585531,3.6667402594884,2.02986056079983,-1.67469530948982,0.941720386711416,3.88573019109817
0.184941100516375,0.0205918954775362,-0.237509763669519,-0.852035382502818,-0.500983576402355,-0.837722485299212,-0.937461821149759,2.35892164604716,4.50680041043028,-1.99905510664291,-5.68488873175918,-4.31834619331088
-0.029382676461697,0.244038375753332,0.231315112837006,1.03875503057705,0.453117355750528,-0.951997872565211,-0.961751907899248,3.11941325844249,3.90098955579053,4.77798514871191,5.05842355382983,-2.42328925220451
-0.324821616691509,0.282830333499911,0.499543159639485,1.16670008466687,0.487220176316381,-0.505840118004043,0.796016976297385,2.15428237462325,2.40299989343861,-2.60467483925009,-1.08459419637459,-3.58498829869076
-0.775962619909072,-0.383366212775559,0.307798976080905,-0.943275657073507,-0.465534470402058,1.0995521558904,-0.568672232270204,1.42591919170536,5.74373672801887,0.0500519722655808,5.31683998459749,3.09333955944164
0.169578343699635,-0.0778898103546014,0.549405903468934,1.4232048418081,-0.229068909027231,-0.202646083530448,-0.132872757508889,4.29703166048904,3.86107725894397,-2.46604424638979,0.272178959603735,2.66799373645393
-0.0572436344158822,-0.0682226605916454,0.926474989810216,0.574461478965818,0.177535765080249,0.248210693704278,-0.61162557935534,0.929491457190545,1.83923897846106,3.72901362439927,5.40345251752847,1.57495774203996
0.172310202187007,-0.0581565443967093,0.125727967747796,1.53459171548362,0.777244821932706,0.246876156816242,-1.15356930889534,4.31040986793695,3.29279962731229,3.19021284151546,4.5064475674243,5.62397299647069
0.089967322202189,-0.308525338990589,0.566537456226893,-0.751367988543085,1.42662425396882,1.09694344445292,0.485493983474966,4.74916541622334,4.50492788075871,2.85383770044201,4.50869761625689,5.31561298111144
-0.311713391072055,0.568778205638466,-0.253184018973342,0.0671223531644129,1.40888131838301,0.943338423066885,1.26315901257521,2.66852234678187,0.803808805580066,4.14154549089757,0.489228327456414,0.528744554478944
-0.0774098535131232,0.59709003761813,0.381273575211934,-1.35612394394272,-0.961876693798727,-1.51632560937625,1.0215684296361,1.01780425073693,5.26571516075827,-5.84796161051158,2.42775442126027,1.09936239052149
-0.225819454365992,0.239232823843378,0.332704789612085,0.978460827936875,0.379672807301514,0.435923530687923,0.445318185159199,2.57018667105005,1.87969818190086,0.118231721314868,4.84839628169072,0.820454195103075
-0.00839760343977226,-0.234852392921224,-0.384621133389275,0.0926609588340505,1.20190028704364,-1.25578521449922,0.512547358865616,2.87558004181252,5.79499552802656,3.04762701855485,-1.82334882386214,1.92932785725683
0.196833970974569,0.128475009015755,0.143130539113669,0.794274839018093,0.56472474315843,1.09834011482196,0.133883406458554,4.88438446246393,1.87740537535582,-4.92516923714223,-3.87958981683116,-1.41941890337261
-0.141139002317067,-0.0939837758535233,-0.131584478906518,-1.44636997013802,-1.10293972339233,0.62082015275167,1.11231165069715,2.10171985826361,3.85172409745829,1.55259772201005,-1.15551377626994,-5.65065541295709
-0.417616171180571,0.182443797736326,0.357164911559763,-1.22630637066891,-1.07917104010014,1.27977733256372,0.769168296868815,2.21462453305547,2.57093176043023,-1.54265309119063,2.05589130306346,-5.19828922870447
-0.656868319592381,-0.0225948086637966,0.785189555859008,-0.301403159116245,-0.1408270843899,0.787803526891934,0.156733807642955,0.9426466358995,5.85625251198614,1.23687295506975,-1.45626355993054,-4.43909642276773
0.242791289173083,-0.453121668318671,0.150115642144272,1.18140235365066,-1.28375442777206,-0.485008856573673,0.61851150398492,4.98309283458676,2.11937108259851,3.3488390555656,-2.67037760600517,5.74566310655389
0.497600931284635,-0.471555066964073,-0.0308162714936406,-1.33041307732802,0.913348737883874,0.570985878384205,0.635593688968841,3.70889542015468,5.56230470695629,-2.90229895800004,5.32331246659636,2.23785615029447
0.247057369095449,-0.366354128023591,-0.354041119559748,-0.430465274021622,-0.0899996729938114,0.0338176888602907,0.85251045908382,3.46666349879637,5.018123648865,2.49168257598353,-4.44084602536089,1.41322822204951
0.504029740045281,0.245502691734605,-0.0426535910760992,-0.844310328028883,-0.283454808145397,-0.00581709149936454,-0.693285612424393,5.02879043528345,1.44567013751435,-2.69276593570796,-5.68433862301266,-0.658739903781616
0.612014416528773,-0.0509972683366144,-0.16609381967023,-1.37933824118694,1.08910433372439,1.44030399363941,0.180917457077852,3.47540225758825,5.419797391466,-1.91745307101511,-0.659377828792259,4.41378264071502
0.03691970842189,0.112636627221079,-0.350868305023291,0.382053101618737,-0.217480631410561,-0.181312737471875,0.241366374614152,3.84039042558047,1.89598091360579,-0.1574402670851,1.51993252902783,-4.6069064866315
-0.202956726676505,-0.0348963506468417,0.44984618296033,1.20746331185077,0.137609023751667,-0.812251486633739,-1.46741054450872,1.38730742420331,3.01492479986115,-5.98125645515599,1.58598817837972,-5.05692596417268
-0.36840051170275,-0.501743989712125,-0.211487824027646,-0.708586526157369,0.192619376326887,-1.53315748790811,-0.782377403571941,2.8080282228446,0.982554263469932,-2.88332868266682,-6.01829032589911,6.09526219151618
-0.511498516567269,0.297361134767892,-0.373781358110691,1.11202764380696,-0.75594964863025,-0.935456696733556,0.35051882760873,2.58957988455829,0.480700835063706,-1.38432711526162,-0.596165883282347,5.4161458688172
0.384594836428825,0.253240513782479,0.349873827933536,-0.577327586668156,0.0947850980527436,0.444389112355943,-0.695849666554348,3.66245635306776,4.06983223122435,-3.94633084091314,0.0724243793433939,3.60027476739457
-0.00336219503336596,0.317014237313345,-0.542640373172351,-0.0529466730914017,0.0232026346151597,-0.646529684845199,-1.2673843417438,3.62276557344919,0.478068342178823,-6.19463356416515,-5.53512676770086,-0.233728723590122
-0.20122791304004,0.567828669666335,-0.346926754902519,0.0872103142441618,0.768494874379109,-1.0630008716778,1.33738890046422,2.71302565733753,0.753293004007587,4.54088911676951,0.242500610983825,-2.27531897615056
0.00968779755162437,-0.258869811506027,0.00062668819909284,1.29513270454575,-0.768511653329555,0.0196591402449804,1.45465899390044,5.13036147354451,1.79290882928994,-3.75242063470017,1.11725971658627,4.30421076703587
0.0357548314718909,-0.228570319139328,-0.124941993382975,-0.850237150771607,0.834340004775381,-0.0857959155806585,-0.512955824943083,3.53379692712755,1.24342299620706,-3.83784831094461,3.28403517874028,-4.39699241318466
0.063707367375832,0.2997585877255,-0.251999628829727,-1.50057229751291,0.252084457678542,1.48371829827454,-0.735424720101242,4.00149306588708,0.416413866092381,-5.87861849645877,-2.67002778359563,-2.05305366347771
0.756898942165014,0.112051823765657,0.0994327197156772,-0.496808684137778,1.40269131728328,0.326048210391228,-0.432860870649908,4.53557926677966,0.533824163769323,-1.77945783679383,1.73765427049266,-4.48614266759594
-0.171172799363302,-0.153208122932892,-0.188272583216583,1.19258922537284,-0.487187929100176,0.787852714724265,1.12386900325453,3.80214298509285,0.979557019409324,-3.66815612924456,3.08502300938797,-1.21382810724332
0.782900586190618,0.0675419473152911,0.0474115408393824,-0.850806894455122,-0.967304079919176,-0.650238785291268,-0.0487887424348685,4.8998080257344,1.1040398353348,5.83548067518067,-5.74748492655156,-5.03358218052749
0.0466287188283029,0.1330551965369,0.433564503623861,-0.436167118371596,-0.396357096271565,0.233181067833461,-0.869472112153487,4.53283162555514,2.8935995876472,1.92581065072962,-4.09260128718864,-4.1880957084825
0.033374969581034,-0.184033192102468,-0.0216513976868858,-0.556912112147674,-0.512004792974872,-0.867019685438027,0.0654969935233221,4.23201058146863,2.93070064193644,4.6447075779192,2.01579582203764,-3.15302693932909
-0.130903981968995,0.208858514493149,-0.205184526652223,1.08816464940208,-0.72027659671972,-1.18459552322706,-0.832829235611076,2.57003478505456,4.58376467445417,5.50328699570354,4.54784491500047,-2.99568712960971
-0.0107368705570581,-0.159700106438472,0.254015183339919,-0.226705405260118,-0.320521966566221,1.19639550005655,-0.275583875427546,3.64776372070062,3.40480043086154,-1.39141207228609,-5.00869423689323,2.66714687302808
0.251375982192908,0.555314342611555,0.766133365807282,0.95325346117589,0.267755711107191,0.0102044303557413,-1.29391154328382,4.80279933313998,5.18415841989352,2.61946990103869,-0.170593836780495,2.50254954755543
0.648182991323706,-0.0049014590818226,0.381375601201875,0.935512680204668,0.555298944642004,1.15415814757168,-0.329907880516161,4.49158660730866,4.7512452541457,-4.32875548109721,-2.28937218172622,-1.9605652225822
-0.156610500309355,-0.0916217436229847,-0.260797892251018,-1.23740187253624,-0.0628865908019738,0.933706746169691,-0.426721591889379,3.44402059655717,0.565894325325122,2.01023877557524,-3.74940589524875,-1.04976247930493
-0.0842337754761557,0.0124513483111341,0.396354794542132,-1.46629931412885,-0.539458770449223,-0.564442872553534,-0.154275269574711,2.45513650879414,2.48563264295413,-4.01739252255145,-5.42703775598809,0.644110046978009
-0.620426532567564,0.0557153871431226,0.574849710863999,-1.45357814703036,1.21781350335155,-1.41572106681181,0.301174892071363,1.53292172554507,1.62949576518819,-2.68446413680375,4.15634425772691,-4.35524090052892
-0.344635134924114,0.104318806571517,-0.0375423360787092,-0.512823440159143,-1.40200893322474,0.0557544263416171,0.163798894776949,3.45080088411792,2.26161981008401,-1.87719976258348,5.76937176565246,0.670339838941982
0.361987483480371,0.0372821573264889,-0.0403306551929726,-0.532463799977499,-0.787177934585236,-1.27906769077419,0.479819218724386,3.09957263492676,3.96575971265798,1.32262037813416,-4.45888390503874,-2.07746569354057
-0.208323046131688,-0.266969040578292,0.58601442172746,-1.43683884884294,1.00142585204469,-0.401618793499673,-0.124300275481301,1.45270092710154,2.37207018310339,-3.41627297808913,4.36684648958412,-1.99209546243461
-0.122993250533029,0.22035503885616,-0.137473211339097,0.667466516489285,1.32257935911674,-1.1429013929922,-0.858316663077139,2.72493307654441,4.17040531370735,-5.45855494777523,-4.01207502820273,2.44173300745723
0.258259497853859,-0.333606868370997,-0.333944308871595,0.769363432996111,0.0133329301081263,-0.411096876712021,0.792487496472043,3.67594462434232,5.27267346844989,-4.16197955889027,2.55785624055548,5.24344580160585
0.105242687914524,-0.245862621356222,0.309187770882741,0.794062724825631,-0.23669157647252,1.11933096688217,-1.0972337211521,1.97883046686047,3.40395809029367,-1.95885418317165,2.39564134269232,-5.55976927866367
0.175788721982998,0.738583893621949,0.00938523740869694,0.477487849346117,0.20802394991348,-1.22023720578591,-1.06574087831085,4.12285096201135,5.78645100412727,5.3978892287916,5.03995648053783,-4.67791548116061
0.0913787612920779,0.0265440328542658,0.218453567777772,-1.21331029630415,0.572660674037985,0.956120906149396,-1.11234710983484,1.20059169028602,3.38066707039732,4.80646300355906,0.399508798775191,3.54013868401535
0.202889319488189,0.274465550195267,-0.153866365526262,0.174007098889379,0.138530302225517,0.599196993035231,-0.978751294293301,4.78933928424155,1.38493230824174,-5.59499900265617,-0.986573059519379,0.692462689979052
-0.143598376493696,0.0228225524870765,0.60034752122587,-0.754352427772747,0.55648362028953,-1.53790342968116,1.47887963884851,1.28903031466474,1.87102133753917,-4.9623709229055,-1.37677612939893,-2.65136492418468
-0.0126405810866666,-0.0815363080873401,-0.346717561209141,-1.5106202576232,-1.08272229628338,1.41511937901088,0.0417842801785522,2.45300331803852,5.54821706900678,3.64359146816603,4.53660265400025,-4.65582842555106
-0.293639662663099,0.235690057900349,-0.238173812206703,0.797006064931314,-0.904055255970172,-0.317502810031476,0.235839885115503,1.84731685701032,5.2110787660336,-6.09444568701269,-4.95436430953082,-1.55751272369995
-0.447400609732542,-0.272734614076869,0.350758523840074,0.371165953466591,0.578037736286026,-0.672226662666862,-0.307581065359296,2.13064945816094,0.871482786778377,-4.79117503334173,-2.28777369544279,5.66482982331796
-0.019258143581644,0.0964311359619747,-0.28958063519662,-1.27737554795827,-0.241456055385723,-0.459550310655442,-0.919209386452213,4.26371515583654,1.78262257147735,-5.815210453401,-6.08146729760707,-4.3642259809461
0.347049210786275,0.0538962445570879,0.609670215055395,-0.253073538209468,-0.0360653650913312,-0.214708400646198,-0.119116020733222,4.30283499858028,4.42752346232443,-1.85492897235034,-0.262143554348061,3.94676718516145
-0.0687452049368487,0.559213083161525,0.027006531077329,1.5388691112815,0.257325831230278,-0.990120187577266,1.06312408463364,2.32440056214381,0.355581791542546,-5.69343493795436,2.98837564180052,-2.85718702178431
-0.452997208762394,0.045531397112066,-0.283061931787421,-0.824824397344223,-0.0259667909619493,0.090275340411078,-0.0581640364215952,1.74407486934148,5.09235342390004,0.0424442944835572,0.341304834077056,-2.66307043686206
-0.277977571317003,-0.00887253086531971,0.859077198962627,1.53467107838127,0.136213838243905,1.00690451413181,0.0376966949025097,0.88157536608647,1.88999964588645,-1.90050039946595,-2.7149532337958,-5.20307776031201
0.709621794230604,0.0645406718762043,0.476943417163305,0.517814700509302,0.293916263174715,0.096666296758442,0.0684276869160203,4.45066943576339,5.62897824249326,-0.034057476703965,1.17814573062064,-2.62813153178375
-0.0687798268819792,-0.571135684745466,0.0432012011216576,0.166455846113362,-0.369688487599211,1.47479883093565,-1.10219790935817,1.47107937627674,4.44745096402458,2.9464298223468,-4.02940652843214,-1.08623230350186
-0.526423857457908,0.341933657348666,-0.00628421737893772,0.00201636732177797,0.340664274460738,1.26384769987695,0.295763128881209,1.44117606410337,4.74535479172065,1.50786649775566,1.4479184783086,2.52845545365758
-0.030322668884833,-0.447566318388891,0.0721392813532957,0.293727956584118,-0.420949784390597,0.0567934664573187,1.53053079157295,3.42472971336506,5.18959753744124,-1.02153691696395,1.94111911608356,5.34398969453587
-0.0317353440619661,0.0862712221321136,0.266353327204652,0.454369675735562,0.279680389810594,0.443918524434459,0.515694996508199,2.24800110653505,3.81568267822461,-1.86838908994437,-2.23220619372175,1.38487761178411
0.238341259855456,0.213404758045664,-0.200462239884686,-1.34451817091034,-0.0636923856196337,0.816468994663337,-1.06712603898041,3.08141585291991,5.646039595146,-1.45877665834651,-3.90861132820232,-0.391581307529063
0.458118410293747,-0.359112254914591,0.435422491701659,0.107985977586931,-0.979301285813944,0.170231222213227,1.07099353884565,4.6965694534842,4.98383380996971,-6.13897976278519,-2.92745780364729,6.28162440780286
-0.0569279517582118,0.274447064731837,-0.357645522564221,0.350711896819941,0.86690490378818,0.426695305303989,-1.19480022240943,3.09662021340112,4.77152807444817,-4.74740001871022,2.04089395574065,-0.149785539137086
0.166468819775571,0.179224228850758,0.0668291911197254,-0.359854101203215,-0.905498578477013,-1.32321574947088,-0.96041634640684,4.85976121239315,1.3515645073981,1.74738976488448,3.02631980533431,0.787570720402208
-0.0495879470314638,-0.0836284445345266,0.522037008198039,0.433243146521011,-1.0329813382722,1.46125904097618,0.404767725381921,1.41251247141584,2.06276816261088,1.09279932549085,-1.3136416835276,2.06020722005648
-0.150871489041746,0.555930654096361,-0.229423256785162,-0.182075758587462,-0.311670393033183,0.699804163849509,1.10569812651399,1.73586508581245,5.4079691787682,-1.46805556019021,5.56846456817111,1.47506964904243
-0.18155706178723,-0.17138317063816,0.203959039196455,-0.553434605335081,-0.842044915258323,-1.27185951740719,0.911361958071262,3.20864142070119,3.31662459625418,-2.16651896428352,-4.65754045174257,-1.4599369128296
0.141787139711799,-0.219714326019555,0.707627210662856,-0.294829884979904,1.2063938034802,0.314222080280399,-0.895427794045175,1.02180242640613,1.876465598643,-4.01399970528982,4.71905311569611,-5.26233655623002
0.521067126007181,0.638388351833803,0.0531606987893732,-0.629679075463026,0.342591453815144,1.4750338757521,-0.993071263691758,4.06745458077301,5.49762547233704,-3.12326520231997,-6.01550739473068,5.78686987421065
-0.00777319889452856,-0.143010201860679,0.131749382624975,-1.30182806899813,-1.30198243044348,-0.0534891479231704,0.57246302544539,2.28240722245071,2.98633249861343,1.24728609681263,-1.58501426954525,4.70595244289647
0.251479916275516,-0.114977158940184,-0.0126880595125084,-1.46322451634504,0.406660510714681,0.134488121299438,0.710542141870631,5.20332537118591,2.30458682086653,5.49369162187264,-0.262629929906591,1.78847902407021
0.308775937204494,0.0487403240788522,0.0821206977343591,-1.08922576951409,-0.70141719263986,-1.34701731073299,0.743449119950514,4.54532382934093,2.55857442748563,-0.654130125951201,3.98702069755454,2.73390444386435
-0.144923279527067,-0.43297231974815,0.270438826792184,1.04242236027988,-0.503484749513798,1.41423218945219,1.38496863751225,5.3179387584572,1.33709838596943,-3.41906550813375,2.71416574418725,3.1087031272589
0.426409979866783,-0.176207304500865,-0.164302174646423,0.0119551669761643,-0.00813078571957997,-0.0523641542315497,0.324148129577572,4.85372467328235,1.74778892355924,-2.01706089154301,-0.0672696906435402,-2.32443815363787
-0.0239205633323828,0.0703338716700143,-0.365637022959342,-1.19535837003018,0.500721189433619,-0.675671815524093,0.142751109262023,3.96965191067055,1.57006576986966,-0.184254987583431,6.1949864460425,-2.20965423257054
0.00950198883125629,0.0708930873152451,0.500163679225075,1.37027037149446,-0.245614501742633,-0.272779828331378,-1.45970358030415,4.58168911994477,3.16017664578154,-5.61988380873862,4.90471762474736,-1.1999076895087
-0.29083138233787,0.342950980928222,-0.345777310896271,-0.605327822948066,0.290155138447764,-0.679220260772286,1.34860147539538,2.69723750163587,0.763406939728608,-3.20064021804143,-1.88168198089001,3.15074464524116
-0.0440004855655604,0.271443106889295,-0.336219280654087,-0.0847210949311621,-1.15599349197407,1.36400277108985,-0.990392888610099,2.82836103018244,5.23921705458603,0.424254386535638,-4.98690486819259,-5.97502664646525
0.0786812883866863,-0.367724945807457,0.775282902492854,-0.195332977680976,0.873902462855463,1.3524643179554,0.646570559364327,5.31580423964026,4.74421007935807,3.32664750088932,2.20473850537859,3.71339657516064
0.167031838967561,-0.0587957613492922,0.0987873512826018,-0.564179489312741,0.789030998584697,-0.518899745561305,-1.44507674531279,2.07375177117981,4.23971902725182,4.61171136099551,2.19417466306412,-4.06803415247557
-0.126488694751626,-0.537271441935762,0.173602338212525,1.21127308282101,-0.838845497220879,1.49254173650867,1.37070345246447,4.97206713042058,0.818743773027875,-3.85787530643628,-2.82500769403902,2.99597192488013
-0.083442777104875,-0.00276424843707659,-0.465892572401185,-0.296952793456652,0.228322837226949,-0.57343808391047,1.12900460808609,3.49700837374338,1.45361271733494,-1.06701194105685,-4.55079550406165,5.24515517708327
0.078238907357002,-0.178059589512421,0.175080118194826,0.32051525573117,0.569741772566483,1.51880519759932,0.831048459040743,3.18794156117336,2.88068624432143,-5.05366548900999,-2.27859267424671,-4.7672688924724
-0.269909172834439,-0.069425782004536,-0.100971516872753,-0.651311138414993,0.78637120742708,1.21393684971944,0.886991185687646,3.34526845370952,1.60890239384269,-3.4657693362979,-3.01092504988512,-2.40177582889635
-0.191759781727617,0.0556533500800526,-0.271780150211835,1.13032726810055,0.160781507573394,-0.588394083411064,-0.352784733031357,2.22289885049912,4.15068963300122,-5.84243720820502,-2.16002948735791,3.08242858302409
